P3
# reel-forge clutter benchmark
64 36
255
5 5 7 5 5 7 5 5 7 5 5 7 5 5 7 5 5 7 5 5 7 5 5 7 5 5 7 5 5 7 5 5 7 5 5 7 5 5 7 5 5 7 5 5 7 5 5 7 5 5 7 5 5 7 5 5 7 5 5 7 5 5 7 5 5 7 5 5 7 5 5 7 5 5 7 5 5 7 5 5 7 5 5 7 5 5 7 5 5 7 5 5 7 5 5 7 5 5 7 5 5 7 5 5 7 5 5 7 5 5 7 5 5 7 5 5 7 5 5 7 5 5 7 5 5 7 5 5 7 5 5 7 5 5 7 5 5 7 5 5 7 5 5 7 5 5 7 5 5 7 5 5 7 5 5 7 5 5 7 5 5 7 5 5 7 5 5 7 5 5 7 5 5 7 5 5 7 5 5 7 5 5 7 5 5 7 5 5 7 5 5 7
5 5 7 5 5 7 5 5 7 5 5 7 5 5 7 5 5 7 5 5 7 5 5 7 5 5 7 5 5 7 5 5 7 5 5 7 5 5 7 5 5 7 5 5 7 5 5 7 5 5 7 5 5 7 5 5 7 5 5 7 5 5 7 5 5 7 5 5 7 5 5 7 5 5 7 5 5 7 5 5 7 5 5 7 5 5 7 5 5 7 5 5 7 5 5 7 5 5 7 5 5 7 5 5 7 5 5 7 5 5 7 5 5 7 5 5 7 5 5 7 5 5 7 5 5 7 5 5 7 5 5 7 5 5 7 5 5 7 5 5 7 5 5 7 5 5 7 5 5 7 5 5 7 5 5 7 5 5 7 5 5 7 5 5 7 5 5 7 5 5 7 5 5 7 5 5 7 5 5 7 5 5 7 5 5 7 5 5 7 5 5 7
5 5 7 5 5 7 5 5 7 5 5 7 5 5 7 5 5 7 5 5 7 5 5 7 5 5 7 5 5 7 5 5 7 5 5 7 5 5 7 5 5 7 5 5 7 5 5 7 5 5 7 5 5 7 5 5 7 5 5 7 5 5 7 5 5 7 5 5 7 5 5 7 5 5 7 5 5 7 5 5 7 5 5 7 5 5 7 5 5 7 5 5 7 5 5 7 5 5 7 5 5 7 5 5 7 5 5 7 5 5 7 5 5 7 5 5 7 5 5 7 5 5 7 5 5 7 5 5 7 5 5 7 5 5 7 5 5 7 5 5 7 5 5 7 5 5 7 5 5 7 5 5 7 5 5 7 5 5 7 5 5 7 5 5 7 5 5 7 5 5 7 5 5 7 5 5 7 5 5 7 5 5 7 5 5 7 5 5 7 5 5 7
5 5 7 5 5 7 5 5 7 5 5 7 5 5 7 5 5 7 5 5 7 5 5 7 5 5 7 5 5 7 5 5 7 5 5 7 5 5 7 5 5 7 5 5 7 5 5 7 5 5 7 5 5 7 5 5 7 5 5 7 5 5 7 5 5 7 5 5 7 5 5 7 5 5 7 5 5 7 5 5 7 5 5 7 5 5 7 5 5 7 5 5 7 5 5 7 5 5 7 5 5 7 5 5 7 5 5 7 5 5 7 5 5 7 5 5 7 5 5 7 5 5 7 5 5 7 5 5 7 5 5 7 5 5 7 5 5 7 5 5 7 5 5 7 5 5 7 5 5 7 5 5 7 5 5 7 5 5 7 5 5 7 5 5 7 5 5 7 5 5 7 5 5 7 5 5 7 5 5 7 5 5 7 5 5 7 5 5 7 5 5 7
125 104 255 125 104 255 5 5 7 5 5 7 108 116 128 108 116 128 108 116 128 108 116 128 108 116 128 108 116 128 5 5 7 5 5 7 5 5 7 81 116 137 81 116 137 81 116 137 81 116 137 81 116 137 81 116 137 5 5 7 5 5 7 5 5 7 144 116 146 144 116 146 144 116 146 144 116 146 144 116 146 144 116 146 5 5 7 5 5 7 5 5 7 117 116 155 117 116 155 117 116 155 117 116 155 117 116 155 117 116 155 5 5 7 5 5 7 5 5 7 90 116 164 90 116 164 90 116 164 90 116 164 90 116 164 90 116 164 5 5 7 5 5 7 5 5 7 153 116 173 153 116 173 153 116 173 153 116 173 153 116 173 153 116 173 5 5 7 5 5 7 5 5 7 126 116 182 126 116 182 126 116 182 126 116 182 126 116 182 126 116 182
5 5 7 5 5 7 125 104 255 125 104 255 108 116 128 108 116 128 108 116 128 108 116 128 108 116 128 108 116 128 5 5 7 5 5 7 5 5 7 81 116 137 81 116 137 81 116 137 81 116 137 81 116 137 81 116 137 5 5 7 5 5 7 5 5 7 144 116 146 144 116 146 144 116 146 144 116 146 144 116 146 144 116 146 5 5 7 5 5 7 5 5 7 117 116 155 117 116 155 117 116 155 117 116 155 117 116 155 117 116 155 5 5 7 5 5 7 5 5 7 90 116 164 90 116 164 90 116 164 90 116 164 90 116 164 90 116 164 5 5 7 5 5 7 5 5 7 153 116 173 153 116 173 153 116 173 153 116 173 153 116 173 153 116 173 5 5 7 5 5 7 5 5 7 126 116 182 126 116 182 126 116 182 126 116 182 126 116 182 126 116 182
5 5 7 5 5 7 5 5 7 5 5 7 125 104 255 125 104 255 108 116 128 108 116 128 108 116 128 108 116 128 5 5 7 5 5 7 5 5 7 81 116 137 81 116 137 81 116 137 81 116 137 81 116 137 81 116 137 5 5 7 5 5 7 5 5 7 144 116 146 144 116 146 144 116 146 144 116 146 144 116 146 144 116 146 5 5 7 5 5 7 5 5 7 117 116 155 117 116 155 117 116 155 117 116 155 117 116 155 117 116 155 5 5 7 5 5 7 5 5 7 90 116 164 90 116 164 90 116 164 90 116 164 90 116 164 90 116 164 5 5 7 5 5 7 5 5 7 153 116 173 153 116 173 153 116 173 153 116 173 153 116 173 153 116 173 5 5 7 5 5 7 5 5 7 126 116 182 126 116 182 126 116 182 126 116 182 126 116 182 126 116 182
5 5 7 5 5 7 5 5 7 5 5 7 108 116 128 108 116 128 125 104 255 125 104 255 125 104 255 108 116 128 5 5 7 5 5 7 5 5 7 81 116 137 81 116 137 81 116 137 81 116 137 81 116 137 81 116 137 5 5 7 5 5 7 5 5 7 144 116 146 144 116 146 144 116 146 144 116 146 144 116 146 144 116 146 5 5 7 5 5 7 5 5 7 117 116 155 117 116 155 117 116 155 117 116 155 117 116 155 117 116 155 5 5 7 5 5 7 5 5 7 90 116 164 90 116 164 90 116 164 90 116 164 90 116 164 90 116 164 5 5 7 5 5 7 5 5 7 153 116 173 153 116 173 153 116 173 153 116 173 153 116 173 153 116 173 5 5 7 5 5 7 5 5 7 126 116 182 126 116 182 126 116 182 126 116 182 126 116 182 126 116 182
5 5 7 5 5 7 5 5 7 5 5 7 5 5 7 5 5 7 5 5 7 5 5 7 5 5 7 125 104 255 125 104 255 5 5 7 5 5 7 5 5 7 5 5 7 5 5 7 5 5 7 5 5 7 5 5 7 5 5 7 5 5 7 5 5 7 5 5 7 5 5 7 5 5 7 5 5 7 5 5 7 5 5 7 5 5 7 5 5 7 5 5 7 5 5 7 5 5 7 5 5 7 5 5 7 5 5 7 5 5 7 5 5 7 5 5 7 5 5 7 5 5 7 5 5 7 5 5 7 5 5 7 5 5 7 5 5 7 5 5 7 5 5 7 5 5 7 5 5 7 5 5 7 5 5 7 5 5 7 5 5 7 5 5 7 5 5 7 5 5 7 5 5 7 5 5 7 5 5 7 5 5 7 5 5 7 5 5 7 5 5 7
5 5 7 5 5 7 5 5 7 5 5 7 5 5 7 5 5 7 5 5 7 5 5 7 5 5 7 5 5 7 5 5 7 125 104 255 125 104 255 5 5 7 5 5 7 5 5 7 5 5 7 5 5 7 5 5 7 5 5 7 5 5 7 5 5 7 5 5 7 5 5 7 5 5 7 5 5 7 5 5 7 5 5 7 5 5 7 5 5 7 5 5 7 5 5 7 5 5 7 5 5 7 5 5 7 5 5 7 5 5 7 5 5 7 5 5 7 5 5 7 5 5 7 5 5 7 5 5 7 5 5 7 5 5 7 5 5 7 5 5 7 5 5 7 5 5 7 5 5 7 5 5 7 5 5 7 5 5 7 5 5 7 5 5 7 5 5 7 5 5 7 5 5 7 5 5 7 5 5 7 5 5 7 5 5 7 5 5 7 5 5 7
5 5 7 5 5 7 5 5 7 5 5 7 5 5 7 5 5 7 5 5 7 5 5 7 5 5 7 5 5 7 5 5 7 5 5 7 5 5 7 125 104 255 125 104 255 125 104 255 5 5 7 5 5 7 5 5 7 5 5 7 5 5 7 5 5 7 5 5 7 5 5 7 5 5 7 5 5 7 5 5 7 5 5 7 5 5 7 5 5 7 5 5 7 5 5 7 5 5 7 5 5 7 5 5 7 5 5 7 5 5 7 5 5 7 5 5 7 5 5 7 5 5 7 5 5 7 5 5 7 5 5 7 5 5 7 5 5 7 5 5 7 5 5 7 5 5 7 5 5 7 5 5 7 5 5 7 5 5 7 5 5 7 5 5 7 5 5 7 5 5 7 5 5 7 5 5 7 5 5 7 5 5 7 5 5 7 5 5 7 5 5 7
5 5 7 5 5 7 5 5 7 5 5 7 108 89 135 108 89 135 108 89 135 108 89 135 108 89 135 108 89 135 5 5 7 5 5 7 5 5 7 81 89 144 81 89 144 125 104 255 125 104 255 125 104 255 81 89 144 5 5 7 5 5 7 5 5 7 144 89 153 144 89 153 144 89 153 144 89 153 144 89 153 144 89 153 5 5 7 5 5 7 5 5 7 117 89 162 117 89 162 117 89 162 117 89 162 117 89 162 117 89 162 5 5 7 5 5 7 5 5 7 90 89 171 90 89 171 90 89 171 90 89 171 90 89 171 90 89 171 5 5 7 5 5 7 5 5 7 153 89 180 153 89 180 153 89 180 153 89 180 153 89 180 153 89 180 5 5 7 5 5 7 5 5 7 126 89 189 126 89 189 126 89 189 126 89 189 126 89 189 126 89 189
5 5 7 5 5 7 5 5 7 5 5 7 108 89 135 108 89 135 108 89 135 108 89 135 108 89 135 108 89 135 5 5 7 5 5 7 5 5 7 81 89 144 81 89 144 125 104 255 81 89 144 81 89 144 125 104 255 125 104 255 5 5 7 5 5 7 144 89 153 144 89 153 144 89 153 144 89 153 144 89 153 144 89 153 5 5 7 5 5 7 5 5 7 117 89 162 117 89 162 117 89 162 117 89 162 117 89 162 117 89 162 5 5 7 5 5 7 5 5 7 90 89 171 90 89 171 90 89 171 90 89 171 90 89 171 90 89 171 5 5 7 5 5 7 5 5 7 153 89 180 153 89 180 153 89 180 153 89 180 153 89 180 153 89 180 5 5 7 5 5 7 5 5 7 126 89 189 126 89 189 126 89 189 126 89 189 126 89 189 126 89 189
5 5 7 5 5 7 5 5 7 5 5 7 108 89 135 108 89 135 108 89 135 108 89 135 108 89 135 108 89 135 5 5 7 5 5 7 5 5 7 81 89 144 125 104 255 81 89 144 81 89 144 81 89 144 81 89 144 5 5 7 125 104 255 125 104 255 125 104 255 144 89 153 144 89 153 144 89 153 144 89 153 144 89 153 5 5 7 5 5 7 5 5 7 117 89 162 117 89 162 117 89 162 117 89 162 117 89 162 117 89 162 5 5 7 5 5 7 5 5 7 90 89 171 90 89 171 90 89 171 90 89 171 90 89 171 90 89 171 5 5 7 5 5 7 5 5 7 153 89 180 153 89 180 153 89 180 153 89 180 153 89 180 153 89 180 5 5 7 5 5 7 5 5 7 126 89 189 126 89 189 126 89 189 126 89 189 126 89 189 126 89 189
5 5 7 5 5 7 5 5 7 5 5 7 108 89 135 108 89 135 108 89 135 108 89 135 108 89 135 108 89 135 5 5 7 5 5 7 5 5 7 81 89 144 125 104 255 81 89 144 81 89 144 81 89 144 81 89 144 5 5 7 125 104 255 125 104 255 125 104 255 125 104 255 125 104 255 144 89 153 144 89 153 144 89 153 5 5 7 5 5 7 5 5 7 117 89 162 117 89 162 117 89 162 117 89 162 117 89 162 117 89 162 5 5 7 5 5 7 5 5 7 90 89 171 90 89 171 90 89 171 90 89 171 90 89 171 90 89 171 5 5 7 5 5 7 5 5 7 153 89 180 153 89 180 153 89 180 153 89 180 153 89 180 153 89 180 5 5 7 5 5 7 5 5 7 126 89 189 126 89 189 126 89 189 126 89 189 126 89 189 126 89 189
5 5 7 5 5 7 5 5 7 5 5 7 5 5 7 5 5 7 5 5 7 5 5 7 5 5 7 5 5 7 5 5 7 5 5 7 5 5 7 125 104 255 5 5 7 5 5 7 5 5 7 5 5 7 5 5 7 5 5 7 5 5 7 5 5 7 125 104 255 125 104 255 5 5 7 125 104 255 125 104 255 5 5 7 5 5 7 5 5 7 5 5 7 5 5 7 5 5 7 5 5 7 5 5 7 5 5 7 5 5 7 5 5 7 5 5 7 5 5 7 5 5 7 5 5 7 5 5 7 5 5 7 5 5 7 5 5 7 5 5 7 5 5 7 5 5 7 5 5 7 5 5 7 5 5 7 5 5 7 5 5 7 5 5 7 5 5 7 5 5 7 5 5 7 5 5 7 5 5 7 5 5 7 5 5 7 5 5 7 5 5 7
5 5 7 5 5 7 5 5 7 5 5 7 5 5 7 5 5 7 5 5 7 5 5 7 5 5 7 5 5 7 5 5 7 5 5 7 125 104 255 5 5 7 5 5 7 5 5 7 5 5 7 5 5 7 5 5 7 5 5 7 5 5 7 5 5 7 5 5 7 5 5 7 125 104 255 125 104 255 125 104 255 125 104 255 125 104 255 5 5 7 5 5 7 5 5 7 5 5 7 5 5 7 5 5 7 5 5 7 5 5 7 5 5 7 5 5 7 5 5 7 5 5 7 5 5 7 5 5 7 5 5 7 5 5 7 5 5 7 5 5 7 5 5 7 5 5 7 5 5 7 5 5 7 5 5 7 5 5 7 5 5 7 5 5 7 5 5 7 5 5 7 5 5 7 5 5 7 5 5 7 5 5 7 5 5 7 5 5 7 5 5 7
5 5 7 5 5 7 5 5 7 5 5 7 5 5 7 5 5 7 5 5 7 5 5 7 5 5 7 5 5 7 5 5 7 5 5 7 125 104 255 5 5 7 5 5 7 5 5 7 5 5 7 5 5 7 5 5 7 5 5 7 5 5 7 5 5 7 5 5 7 5 5 7 5 5 7 5 5 7 5 5 7 125 104 255 125 104 255 125 104 255 125 104 255 125 104 255 5 5 7 5 5 7 5 5 7 5 5 7 5 5 7 5 5 7 5 5 7 5 5 7 5 5 7 5 5 7 5 5 7 5 5 7 5 5 7 5 5 7 5 5 7 5 5 7 5 5 7 5 5 7 5 5 7 5 5 7 5 5 7 5 5 7 5 5 7 5 5 7 5 5 7 5 5 7 5 5 7 5 5 7 5 5 7 5 5 7 5 5 7 5 5 7
5 5 7 5 5 7 5 5 7 5 5 7 108 152 142 108 152 142 108 152 142 108 152 142 108 152 142 108 152 142 5 5 7 125 104 255 5 5 7 81 152 151 81 152 151 81 152 151 81 152 151 81 152 151 81 152 151 5 5 7 5 5 7 5 5 7 144 152 160 144 152 160 144 152 160 144 152 160 144 152 160 144 152 160 5 5 7 125 104 255 125 104 255 125 104 255 125 104 255 125 104 255 117 152 169 117 152 169 117 152 169 5 5 7 5 5 7 5 5 7 90 152 178 90 152 178 90 152 178 90 152 178 90 152 178 90 152 178 5 5 7 5 5 7 5 5 7 153 152 187 153 152 187 153 152 187 153 152 187 153 152 187 153 152 187 5 5 7 5 5 7 5 5 7 126 152 126 126 152 126 126 152 126 126 152 126 126 152 126 126 152 126
5 5 7 5 5 7 5 5 7 5 5 7 108 152 142 108 152 142 108 152 142 108 152 142 108 152 142 108 152 142 5 5 7 125 104 255 5 5 7 81 152 151 81 152 151 81 152 151 81 152 151 81 152 151 81 152 151 5 5 7 5 5 7 5 5 7 144 152 160 144 152 160 144 152 160 144 152 160 144 152 160 144 152 160 5 5 7 5 5 7 5 5 7 117 152 169 125 104 255 125 104 255 125 104 255 125 104 255 117 152 169 5 5 7 5 5 7 5 5 7 90 152 178 90 152 178 90 152 178 90 152 178 90 152 178 90 152 178 5 5 7 5 5 7 5 5 7 153 152 187 153 152 187 153 152 187 153 152 187 153 152 187 153 152 187 5 5 7 5 5 7 5 5 7 126 152 126 126 152 126 126 152 126 126 152 126 126 152 126 126 152 126
5 5 7 5 5 7 5 5 7 5 5 7 108 152 142 108 152 142 108 152 142 108 152 142 108 152 142 108 152 142 125 104 255 5 5 7 5 5 7 81 152 151 81 152 151 81 152 151 81 152 151 81 152 151 81 152 151 5 5 7 5 5 7 5 5 7 144 152 160 144 152 160 144 152 160 144 152 160 144 152 160 144 152 160 5 5 7 5 5 7 5 5 7 117 152 169 117 152 169 117 152 169 117 152 169 125 104 255 125 104 255 125 104 255 125 104 255 5 5 7 90 152 178 90 152 178 90 152 178 90 152 178 90 152 178 90 152 178 5 5 7 5 5 7 5 5 7 153 152 187 153 152 187 153 152 187 153 152 187 153 152 187 153 152 187 5 5 7 5 5 7 5 5 7 126 152 126 126 152 126 126 152 126 126 152 126 126 152 126 126 152 126
5 5 7 5 5 7 5 5 7 5 5 7 108 152 142 108 152 142 108 152 142 108 152 142 108 152 142 125 104 255 5 5 7 5 5 7 5 5 7 81 152 151 81 152 151 81 152 151 81 152 151 81 152 151 81 152 151 5 5 7 5 5 7 5 5 7 144 152 160 144 152 160 144 152 160 144 152 160 144 152 160 144 152 160 5 5 7 5 5 7 5 5 7 117 152 169 117 152 169 117 152 169 117 152 169 117 152 169 117 152 169 125 104 255 125 104 255 125 104 255 125 104 255 90 152 178 90 152 178 90 152 178 90 152 178 90 152 178 5 5 7 5 5 7 5 5 7 153 152 187 153 152 187 153 152 187 153 152 187 153 152 187 153 152 187 5 5 7 5 5 7 5 5 7 126 152 126 126 152 126 126 152 126 126 152 126 126 152 126 126 152 126
5 5 7 5 5 7 5 5 7 5 5 7 5 5 7 5 5 7 5 5 7 5 5 7 5 5 7 125 104 255 5 5 7 5 5 7 5 5 7 5 5 7 5 5 7 5 5 7 5 5 7 5 5 7 5 5 7 5 5 7 5 5 7 5 5 7 5 5 7 5 5 7 5 5 7 5 5 7 5 5 7 5 5 7 5 5 7 5 5 7 5 5 7 5 5 7 5 5 7 5 5 7 5 5 7 5 5 7 5 5 7 5 5 7 5 5 7 125 104 255 125 104 255 125 104 255 125 104 255 5 5 7 5 5 7 5 5 7 5 5 7 5 5 7 5 5 7 5 5 7 5 5 7 5 5 7 5 5 7 5 5 7 5 5 7 5 5 7 5 5 7 5 5 7 5 5 7 5 5 7 5 5 7 5 5 7 5 5 7 5 5 7
5 5 7 5 5 7 5 5 7 5 5 7 5 5 7 5 5 7 5 5 7 5 5 7 125 104 255 5 5 7 5 5 7 5 5 7 5 5 7 5 5 7 5 5 7 5 5 7 5 5 7 5 5 7 5 5 7 5 5 7 5 5 7 5 5 7 5 5 7 5 5 7 5 5 7 5 5 7 5 5 7 5 5 7 5 5 7 5 5 7 5 5 7 5 5 7 5 5 7 5 5 7 5 5 7 5 5 7 5 5 7 5 5 7 5 5 7 5 5 7 5 5 7 5 5 7 125 104 255 125 104 255 125 104 255 5 5 7 5 5 7 5 5 7 5 5 7 5 5 7 5 5 7 5 5 7 5 5 7 5 5 7 5 5 7 5 5 7 5 5 7 5 5 7 5 5 7 5 5 7 5 5 7 5 5 7 5 5 7 5 5 7
5 5 7 5 5 7 5 5 7 5 5 7 5 5 7 5 5 7 5 5 7 125 104 255 5 5 7 5 5 7 5 5 7 5 5 7 5 5 7 5 5 7 5 5 7 5 5 7 5 5 7 5 5 7 5 5 7 5 5 7 5 5 7 5 5 7 5 5 7 5 5 7 5 5 7 5 5 7 5 5 7 5 5 7 5 5 7 5 5 7 5 5 7 5 5 7 5 5 7 5 5 7 5 5 7 5 5 7 5 5 7 5 5 7 5 5 7 5 5 7 5 5 7 5 5 7 5 5 7 5 5 7 125 104 255 125 104 255 125 104 255 125 104 255 5 5 7 5 5 7 5 5 7 5 5 7 5 5 7 5 5 7 5 5 7 5 5 7 5 5 7 5 5 7 5 5 7 5 5 7 5 5 7 5 5 7 5 5 7 5 5 7
5 5 7 5 5 7 5 5 7 5 5 7 108 125 149 108 125 149 108 125 149 125 104 255 108 125 149 108 125 149 5 5 7 5 5 7 5 5 7 81 125 158 81 125 158 81 125 158 81 125 158 81 125 158 81 125 158 5 5 7 5 5 7 5 5 7 144 125 167 144 125 167 144 125 167 144 125 167 144 125 167 144 125 167 5 5 7 5 5 7 5 5 7 117 125 176 117 125 176 117 125 176 117 125 176 117 125 176 117 125 176 5 5 7 5 5 7 5 5 7 90 125 185 90 125 185 90 125 185 90 125 185 90 125 185 90 125 185 5 5 7 125 104 255 125 104 255 125 104 255 153 125 124 153 125 124 153 125 124 153 125 124 153 125 124 5 5 7 5 5 7 5 5 7 126 125 133 126 125 133 126 125 133 126 125 133 126 125 133 126 125 133
5 5 7 5 5 7 5 5 7 5 5 7 108 125 149 108 125 149 125 104 255 108 125 149 108 125 149 108 125 149 5 5 7 5 5 7 5 5 7 81 125 158 81 125 158 81 125 158 81 125 158 81 125 158 81 125 158 5 5 7 5 5 7 5 5 7 144 125 167 144 125 167 144 125 167 144 125 167 144 125 167 144 125 167 5 5 7 5 5 7 5 5 7 117 125 176 117 125 176 117 125 176 117 125 176 117 125 176 117 125 176 5 5 7 5 5 7 5 5 7 90 125 185 90 125 185 90 125 185 90 125 185 90 125 185 90 125 185 5 5 7 5 5 7 5 5 7 125 104 255 125 104 255 125 104 255 125 104 255 153 125 124 153 125 124 5 5 7 5 5 7 5 5 7 126 125 133 126 125 133 126 125 133 126 125 133 126 125 133 126 125 133
5 5 7 5 5 7 5 5 7 5 5 7 108 125 149 108 125 149 125 104 255 108 125 149 108 125 149 108 125 149 5 5 7 5 5 7 5 5 7 81 125 158 81 125 158 81 125 158 81 125 158 81 125 158 81 125 158 5 5 7 5 5 7 5 5 7 144 125 167 144 125 167 144 125 167 144 125 167 144 125 167 144 125 167 5 5 7 5 5 7 5 5 7 117 125 176 117 125 176 117 125 176 117 125 176 117 125 176 117 125 176 5 5 7 5 5 7 5 5 7 90 125 185 90 125 185 90 125 185 90 125 185 90 125 185 90 125 185 5 5 7 5 5 7 5 5 7 153 125 124 153 125 124 153 125 124 125 104 255 125 104 255 125 104 255 5 5 7 5 5 7 5 5 7 126 125 133 126 125 133 126 125 133 126 125 133 126 125 133 126 125 133
5 5 7 5 5 7 5 5 7 5 5 7 108 125 149 125 104 255 108 125 149 108 125 149 108 125 149 108 125 149 5 5 7 5 5 7 5 5 7 81 125 158 81 125 158 81 125 158 81 125 158 81 125 158 81 125 158 5 5 7 5 5 7 5 5 7 144 125 167 144 125 167 144 125 167 144 125 167 144 125 167 144 125 167 5 5 7 5 5 7 5 5 7 117 125 176 117 125 176 117 125 176 117 125 176 117 125 176 117 125 176 5 5 7 5 5 7 5 5 7 90 125 185 90 125 185 90 125 185 90 125 185 90 125 185 90 125 185 5 5 7 5 5 7 5 5 7 153 125 124 153 125 124 153 125 124 153 125 124 153 125 124 125 104 255 125 104 255 125 104 255 5 5 7 126 125 133 126 125 133 126 125 133 126 125 133 126 125 133 126 125 133
5 5 7 5 5 7 5 5 7 5 5 7 125 104 255 5 5 7 5 5 7 5 5 7 5 5 7 5 5 7 5 5 7 5 5 7 5 5 7 5 5 7 5 5 7 5 5 7 5 5 7 5 5 7 5 5 7 5 5 7 5 5 7 5 5 7 5 5 7 5 5 7 5 5 7 5 5 7 5 5 7 5 5 7 5 5 7 5 5 7 5 5 7 5 5 7 5 5 7 5 5 7 5 5 7 5 5 7 5 5 7 5 5 7 5 5 7 5 5 7 5 5 7 5 5 7 5 5 7 5 5 7 5 5 7 5 5 7 5 5 7 5 5 7 5 5 7 5 5 7 5 5 7 5 5 7 5 5 7 5 5 7 5 5 7 5 5 7 5 5 7 125 104 255 125 104 255 5 5 7 5 5 7 5 5 7 5 5 7 5 5 7
5 5 7 5 5 7 5 5 7 5 5 7 125 104 255 5 5 7 5 5 7 5 5 7 5 5 7 5 5 7 5 5 7 5 5 7 5 5 7 5 5 7 5 5 7 5 5 7 5 5 7 5 5 7 5 5 7 5 5 7 5 5 7 5 5 7 5 5 7 5 5 7 5 5 7 5 5 7 5 5 7 5 5 7 5 5 7 5 5 7 5 5 7 5 5 7 5 5 7 5 5 7 5 5 7 5 5 7 5 5 7 5 5 7 5 5 7 5 5 7 5 5 7 5 5 7 5 5 7 5 5 7 5 5 7 5 5 7 5 5 7 5 5 7 5 5 7 5 5 7 5 5 7 5 5 7 5 5 7 5 5 7 5 5 7 5 5 7 5 5 7 5 5 7 5 5 7 125 104 255 125 104 255 5 5 7 5 5 7 5 5 7
5 5 7 5 5 7 5 5 7 125 104 255 5 5 7 5 5 7 5 5 7 5 5 7 5 5 7 5 5 7 5 5 7 5 5 7 5 5 7 5 5 7 5 5 7 5 5 7 5 5 7 5 5 7 5 5 7 5 5 7 5 5 7 5 5 7 5 5 7 5 5 7 5 5 7 5 5 7 5 5 7 5 5 7 5 5 7 5 5 7 5 5 7 5 5 7 5 5 7 5 5 7 5 5 7 5 5 7 5 5 7 5 5 7 5 5 7 5 5 7 5 5 7 5 5 7 5 5 7 5 5 7 5 5 7 5 5 7 5 5 7 5 5 7 5 5 7 5 5 7 5 5 7 5 5 7 5 5 7 5 5 7 5 5 7 5 5 7 5 5 7 5 5 7 5 5 7 5 5 7 5 5 7 5 5 7 5 5 7 5 5 7
5 5 7 5 5 7 5 5 7 5 5 7 5 5 7 5 5 7 5 5 7 5 5 7 5 5 7 5 5 7 5 5 7 5 5 7 5 5 7 5 5 7 5 5 7 5 5 7 5 5 7 5 5 7 5 5 7 5 5 7 5 5 7 5 5 7 5 5 7 5 5 7 5 5 7 5 5 7 5 5 7 5 5 7 5 5 7 5 5 7 5 5 7 5 5 7 5 5 7 5 5 7 5 5 7 5 5 7 5 5 7 5 5 7 5 5 7 5 5 7 5 5 7 5 5 7 5 5 7 5 5 7 5 5 7 5 5 7 5 5 7 5 5 7 5 5 7 5 5 7 5 5 7 5 5 7 5 5 7 5 5 7 5 5 7 5 5 7 5 5 7 5 5 7 5 5 7 5 5 7 5 5 7 5 5 7 5 5 7 5 5 7
5 5 7 5 5 7 5 5 7 5 5 7 5 5 7 5 5 7 5 5 7 5 5 7 5 5 7 5 5 7 5 5 7 5 5 7 5 5 7 5 5 7 5 5 7 5 5 7 5 5 7 5 5 7 5 5 7 5 5 7 5 5 7 5 5 7 5 5 7 5 5 7 5 5 7 5 5 7 5 5 7 5 5 7 5 5 7 5 5 7 5 5 7 5 5 7 5 5 7 5 5 7 5 5 7 5 5 7 5 5 7 5 5 7 5 5 7 5 5 7 5 5 7 5 5 7 5 5 7 5 5 7 5 5 7 5 5 7 5 5 7 5 5 7 5 5 7 5 5 7 5 5 7 5 5 7 5 5 7 5 5 7 5 5 7 5 5 7 5 5 7 5 5 7 5 5 7 5 5 7 5 5 7 5 5 7 5 5 7 5 5 7
5 5 7 5 5 7 5 5 7 5 5 7 5 5 7 5 5 7 5 5 7 5 5 7 5 5 7 5 5 7 5 5 7 5 5 7 5 5 7 5 5 7 5 5 7 5 5 7 5 5 7 5 5 7 5 5 7 5 5 7 5 5 7 5 5 7 5 5 7 5 5 7 5 5 7 5 5 7 5 5 7 5 5 7 5 5 7 5 5 7 5 5 7 5 5 7 5 5 7 5 5 7 5 5 7 5 5 7 5 5 7 5 5 7 5 5 7 5 5 7 5 5 7 5 5 7 5 5 7 5 5 7 5 5 7 5 5 7 5 5 7 5 5 7 5 5 7 5 5 7 5 5 7 5 5 7 5 5 7 5 5 7 5 5 7 5 5 7 5 5 7 5 5 7 5 5 7 5 5 7 5 5 7 5 5 7 5 5 7 5 5 7
5 5 7 5 5 7 5 5 7 5 5 7 5 5 7 5 5 7 5 5 7 5 5 7 5 5 7 5 5 7 5 5 7 5 5 7 5 5 7 5 5 7 5 5 7 5 5 7 5 5 7 5 5 7 5 5 7 5 5 7 5 5 7 5 5 7 5 5 7 5 5 7 5 5 7 5 5 7 5 5 7 5 5 7 5 5 7 5 5 7 5 5 7 5 5 7 5 5 7 5 5 7 5 5 7 5 5 7 5 5 7 5 5 7 5 5 7 5 5 7 5 5 7 5 5 7 5 5 7 5 5 7 5 5 7 5 5 7 5 5 7 5 5 7 5 5 7 5 5 7 5 5 7 5 5 7 5 5 7 5 5 7 5 5 7 5 5 7 5 5 7 5 5 7 5 5 7 5 5 7 5 5 7 5 5 7 5 5 7 5 5 7
