P3
# reel-forge decorative-motion benchmark
64 36
255
5 5 7 5 5 7 5 5 7 5 5 7 5 5 7 5 5 7 5 5 7 5 5 7 5 5 7 5 5 7 5 5 7 5 5 7 5 5 7 5 5 7 5 5 7 5 5 7 5 5 7 5 5 7 5 5 7 5 5 7 5 5 7 5 5 7 5 5 7 5 5 7 5 5 7 5 5 7 5 5 7 5 5 7 5 5 7 5 5 7 5 5 7 5 5 7 5 5 7 5 5 7 5 5 7 5 5 7 5 5 7 5 5 7 5 5 7 5 5 7 5 5 7 5 5 7 5 5 7 5 5 7 5 5 7 5 5 7 5 5 7 5 5 7 5 5 7 5 5 7 5 5 7 5 5 7 5 5 7 5 5 7 5 5 7 5 5 7 5 5 7 5 5 7 5 5 7 5 5 7 5 5 7 5 5 7 5 5 7 5 5 7
5 5 7 5 5 7 5 5 7 5 5 7 5 5 7 5 5 7 5 5 7 5 5 7 5 5 7 5 5 7 5 5 7 5 5 7 5 5 7 5 5 7 5 5 7 5 5 7 5 5 7 5 5 7 5 5 7 5 5 7 5 5 7 5 5 7 5 5 7 5 5 7 5 5 7 5 5 7 5 5 7 5 5 7 5 5 7 5 5 7 5 5 7 5 5 7 5 5 7 5 5 7 5 5 7 5 5 7 5 5 7 5 5 7 5 5 7 5 5 7 5 5 7 5 5 7 5 5 7 5 5 7 5 5 7 5 5 7 5 5 7 5 5 7 5 5 7 5 5 7 5 5 7 5 5 7 5 5 7 5 5 7 5 5 7 5 5 7 5 5 7 5 5 7 5 5 7 5 5 7 5 5 7 5 5 7 5 5 7 5 5 7
5 5 7 5 5 7 5 5 7 5 5 7 5 5 7 5 5 7 5 5 7 5 5 7 5 5 7 5 5 7 5 5 7 5 5 7 5 5 7 5 5 7 5 5 7 5 5 7 5 5 7 5 5 7 5 5 7 5 5 7 5 5 7 5 5 7 5 5 7 5 5 7 5 5 7 5 5 7 5 5 7 5 5 7 5 5 7 5 5 7 5 5 7 5 5 7 5 5 7 5 5 7 5 5 7 5 5 7 5 5 7 5 5 7 5 5 7 5 5 7 5 5 7 5 5 7 5 5 7 5 5 7 5 5 7 5 5 7 5 5 7 5 5 7 5 5 7 5 5 7 5 5 7 5 5 7 5 5 7 5 5 7 5 5 7 5 5 7 5 5 7 5 5 7 5 5 7 5 5 7 5 5 7 5 5 7 5 5 7 5 5 7
5 5 7 5 5 7 5 5 7 5 5 7 5 5 7 5 5 7 5 5 7 5 5 7 5 5 7 5 5 7 5 5 7 5 5 7 5 5 7 5 5 7 5 5 7 5 5 7 5 5 7 5 5 7 5 5 7 5 5 7 5 5 7 5 5 7 5 5 7 5 5 7 5 5 7 5 5 7 5 5 7 5 5 7 5 5 7 5 5 7 5 5 7 5 5 7 5 5 7 5 5 7 5 5 7 5 5 7 5 5 7 5 5 7 5 5 7 5 5 7 5 5 7 5 5 7 5 5 7 5 5 7 5 5 7 5 5 7 5 5 7 5 5 7 5 5 7 5 5 7 5 5 7 5 5 7 5 5 7 5 5 7 5 5 7 5 5 7 5 5 7 5 5 7 5 5 7 5 5 7 5 5 7 5 5 7 5 5 7 5 5 7
5 5 7 5 5 7 5 5 7 5 5 7 5 5 7 5 5 7 5 5 7 5 5 7 5 5 7 5 5 7 5 5 7 5 5 7 5 5 7 5 5 7 5 5 7 5 5 7 5 5 7 5 5 7 5 5 7 5 5 7 5 5 7 5 5 7 5 5 7 5 5 7 5 5 7 5 5 7 5 5 7 5 5 7 5 5 7 5 5 7 5 5 7 5 5 7 5 5 7 5 5 7 5 5 7 5 5 7 5 5 7 5 5 7 5 5 7 5 5 7 5 5 7 5 5 7 5 5 7 5 5 7 5 5 7 5 5 7 5 5 7 5 5 7 5 5 7 5 5 7 5 5 7 5 5 7 5 5 7 5 5 7 5 5 7 5 5 7 5 5 7 5 5 7 5 5 7 5 5 7 5 5 7 5 5 7 5 5 7 5 5 7
5 5 7 5 5 7 5 5 7 5 5 7 5 5 7 5 5 7 5 5 7 5 5 7 5 5 7 5 5 7 5 5 7 5 5 7 5 5 7 5 5 7 5 5 7 5 5 7 5 5 7 5 5 7 5 5 7 5 5 7 5 5 7 5 5 7 5 5 7 5 5 7 5 5 7 5 5 7 5 5 7 5 5 7 5 5 7 5 5 7 5 5 7 5 5 7 5 5 7 5 5 7 5 5 7 5 5 7 5 5 7 5 5 7 5 5 7 5 5 7 5 5 7 5 5 7 5 5 7 5 5 7 5 5 7 5 5 7 5 5 7 5 5 7 5 5 7 5 5 7 5 5 7 5 5 7 5 5 7 5 5 7 5 5 7 5 5 7 5 5 7 5 5 7 5 5 7 5 5 7 5 5 7 5 5 7 5 5 7 5 5 7
5 5 7 5 5 7 5 5 7 5 5 7 125 104 255 5 5 7 5 5 7 5 5 7 5 5 7 5 5 7 5 5 7 5 5 7 125 104 255 5 5 7 5 5 7 5 5 7 5 5 7 5 5 7 5 5 7 5 5 7 125 104 255 5 5 7 5 5 7 5 5 7 5 5 7 5 5 7 5 5 7 5 5 7 125 104 255 5 5 7 5 5 7 5 5 7 5 5 7 5 5 7 5 5 7 5 5 7 125 104 255 5 5 7 5 5 7 5 5 7 5 5 7 5 5 7 5 5 7 5 5 7 125 104 255 5 5 7 5 5 7 5 5 7 5 5 7 5 5 7 5 5 7 125 104 255 125 104 255 5 5 7 5 5 7 5 5 7 5 5 7 5 5 7 5 5 7 125 104 255 125 104 255 5 5 7 5 5 7 5 5 7
5 5 7 5 5 7 5 5 7 5 5 7 5 5 7 125 104 255 5 5 7 5 5 7 5 5 7 5 5 7 5 5 7 5 5 7 5 5 7 125 104 255 5 5 7 5 5 7 5 5 7 5 5 7 5 5 7 5 5 7 5 5 7 125 104 255 5 5 7 5 5 7 5 5 7 5 5 7 5 5 7 5 5 7 5 5 7 125 104 255 5 5 7 5 5 7 5 5 7 5 5 7 5 5 7 5 5 7 5 5 7 125 104 255 5 5 7 5 5 7 5 5 7 5 5 7 5 5 7 5 5 7 5 5 7 125 104 255 5 5 7 5 5 7 5 5 7 125 104 255 125 104 255 5 5 7 5 5 7 5 5 7 5 5 7 5 5 7 5 5 7 125 104 255 125 104 255 5 5 7 5 5 7 5 5 7 5 5 7 5 5 7
5 5 7 5 5 7 5 5 7 5 5 7 5 5 7 5 5 7 125 104 255 5 5 7 5 5 7 5 5 7 5 5 7 5 5 7 5 5 7 5 5 7 125 104 255 5 5 7 5 5 7 5 5 7 5 5 7 5 5 7 5 5 7 5 5 7 125 104 255 5 5 7 5 5 7 5 5 7 5 5 7 5 5 7 5 5 7 5 5 7 125 104 255 5 5 7 5 5 7 5 5 7 5 5 7 5 5 7 5 5 7 5 5 7 125 104 255 5 5 7 5 5 7 5 5 7 5 5 7 5 5 7 5 5 7 5 5 7 125 104 255 125 104 255 125 104 255 5 5 7 5 5 7 5 5 7 5 5 7 5 5 7 5 5 7 125 104 255 125 104 255 5 5 7 5 5 7 5 5 7 5 5 7 5 5 7 5 5 7 5 5 7
5 5 7 5 5 7 5 5 7 5 5 7 5 5 7 5 5 7 125 104 255 5 5 7 5 5 7 5 5 7 5 5 7 5 5 7 5 5 7 5 5 7 125 104 255 5 5 7 5 5 7 5 5 7 5 5 7 5 5 7 5 5 7 5 5 7 125 104 255 5 5 7 5 5 7 5 5 7 5 5 7 5 5 7 5 5 7 5 5 7 125 104 255 5 5 7 5 5 7 5 5 7 5 5 7 5 5 7 5 5 7 5 5 7 125 104 255 5 5 7 5 5 7 5 5 7 5 5 7 5 5 7 5 5 7 125 104 255 125 104 255 5 5 7 5 5 7 5 5 7 5 5 7 5 5 7 5 5 7 125 104 255 125 104 255 5 5 7 5 5 7 5 5 7 5 5 7 5 5 7 5 5 7 5 5 7 5 5 7 5 5 7
5 5 7 5 5 7 5 5 7 5 5 7 5 5 7 5 5 7 5 5 7 125 104 255 5 5 7 5 5 7 5 5 7 5 5 7 5 5 7 5 5 7 5 5 7 125 104 255 5 5 7 5 5 7 5 5 7 5 5 7 5 5 7 5 5 7 5 5 7 125 104 255 5 5 7 5 5 7 5 5 7 5 5 7 5 5 7 5 5 7 5 5 7 125 104 255 5 5 7 5 5 7 5 5 7 5 5 7 5 5 7 5 5 7 5 5 7 125 104 255 5 5 7 5 5 7 5 5 7 125 104 255 125 104 255 5 5 7 5 5 7 125 104 255 5 5 7 5 5 7 5 5 7 125 104 255 125 104 255 5 5 7 5 5 7 5 5 7 5 5 7 5 5 7 5 5 7 5 5 7 5 5 7 5 5 7 5 5 7 5 5 7
5 5 7 5 5 7 5 5 7 5 5 7 5 5 7 5 5 7 5 5 7 5 5 7 125 104 255 5 5 7 5 5 7 5 5 7 5 5 7 5 5 7 5 5 7 5 5 7 125 104 255 5 5 7 5 5 7 5 5 7 5 5 7 5 5 7 5 5 7 5 5 7 125 104 255 5 5 7 5 5 7 5 5 7 5 5 7 5 5 7 5 5 7 5 5 7 125 104 255 5 5 7 5 5 7 5 5 7 5 5 7 5 5 7 5 5 7 5 5 7 125 104 255 125 104 255 125 104 255 5 5 7 5 5 7 5 5 7 5 5 7 5 5 7 125 104 255 125 104 255 125 104 255 5 5 7 5 5 7 5 5 7 5 5 7 5 5 7 5 5 7 5 5 7 5 5 7 5 5 7 5 5 7 5 5 7 5 5 7 5 5 7
5 5 7 5 5 7 5 5 7 5 5 7 5 5 7 5 5 7 5 5 7 5 5 7 5 5 7 125 104 255 5 5 7 5 5 7 5 5 7 5 5 7 5 5 7 5 5 7 5 5 7 125 104 255 5 5 7 5 5 7 5 5 7 5 5 7 5 5 7 5 5 7 5 5 7 125 104 255 5 5 7 5 5 7 5 5 7 5 5 7 5 5 7 5 5 7 5 5 7 125 104 255 5 5 7 5 5 7 5 5 7 5 5 7 5 5 7 125 104 255 125 104 255 125 104 255 5 5 7 5 5 7 5 5 7 5 5 7 5 5 7 125 104 255 125 104 255 125 104 255 5 5 7 5 5 7 5 5 7 5 5 7 5 5 7 5 5 7 5 5 7 5 5 7 5 5 7 5 5 7 5 5 7 5 5 7 5 5 7 5 5 7
5 5 7 5 5 7 5 5 7 5 5 7 5 5 7 5 5 7 5 5 7 5 5 7 5 5 7 5 5 7 125 104 255 5 5 7 5 5 7 5 5 7 5 5 7 5 5 7 5 5 7 5 5 7 125 104 255 5 5 7 5 5 7 5 5 7 5 5 7 5 5 7 5 5 7 5 5 7 125 104 255 5 5 7 5 5 7 5 5 7 5 5 7 5 5 7 5 5 7 5 5 7 125 104 255 5 5 7 5 5 7 125 104 255 125 104 255 5 5 7 5 5 7 5 5 7 125 104 255 5 5 7 5 5 7 125 104 255 125 104 255 5 5 7 5 5 7 5 5 7 125 104 255 5 5 7 5 5 7 5 5 7 5 5 7 5 5 7 5 5 7 5 5 7 5 5 7 5 5 7 5 5 7 5 5 7 5 5 7 5 5 7
5 5 7 5 5 7 5 5 7 5 5 7 5 5 7 5 5 7 5 5 7 5 5 7 5 5 7 5 5 7 5 5 7 125 104 255 5 5 7 5 5 7 5 5 7 5 5 7 5 5 7 5 5 7 5 5 7 125 104 255 5 5 7 5 5 7 5 5 7 5 5 7 40 40 52 40 40 52 40 40 52 40 40 52 40 40 52 40 40 52 40 40 52 40 40 52 40 40 52 40 40 52 40 40 52 40 40 52 40 40 52 40 40 52 40 40 52 40 40 52 5 5 7 5 5 7 5 5 7 125 104 255 125 104 255 5 5 7 5 5 7 5 5 7 5 5 7 5 5 7 5 5 7 125 104 255 5 5 7 5 5 7 5 5 7 5 5 7 5 5 7 5 5 7 5 5 7 5 5 7 5 5 7 5 5 7 5 5 7 5 5 7
5 5 7 5 5 7 5 5 7 5 5 7 5 5 7 5 5 7 5 5 7 5 5 7 5 5 7 5 5 7 5 5 7 125 104 255 5 5 7 5 5 7 5 5 7 5 5 7 5 5 7 5 5 7 5 5 7 125 104 255 5 5 7 5 5 7 5 5 7 5 5 7 40 40 52 40 40 52 40 40 52 40 40 52 40 40 52 40 40 52 40 40 52 40 40 52 40 40 52 40 40 52 40 40 52 40 40 52 40 40 52 40 40 52 40 40 52 40 40 52 5 5 7 125 104 255 125 104 255 125 104 255 5 5 7 5 5 7 5 5 7 5 5 7 5 5 7 5 5 7 5 5 7 125 104 255 5 5 7 5 5 7 5 5 7 5 5 7 5 5 7 5 5 7 5 5 7 5 5 7 5 5 7 5 5 7 5 5 7 5 5 7
5 5 7 5 5 7 5 5 7 5 5 7 5 5 7 5 5 7 5 5 7 5 5 7 5 5 7 5 5 7 5 5 7 5 5 7 125 104 255 5 5 7 5 5 7 5 5 7 5 5 7 5 5 7 5 5 7 5 5 7 125 104 255 5 5 7 5 5 7 5 5 7 40 40 52 40 40 52 40 40 52 40 40 52 40 40 52 40 40 52 40 40 52 40 40 52 40 40 52 40 40 52 40 40 52 40 40 52 40 40 52 40 40 52 40 40 52 40 40 52 125 104 255 5 5 7 5 5 7 5 5 7 125 104 255 5 5 7 5 5 7 5 5 7 5 5 7 5 5 7 5 5 7 5 5 7 125 104 255 5 5 7 5 5 7 5 5 7 5 5 7 5 5 7 5 5 7 5 5 7 5 5 7 5 5 7 5 5 7 5 5 7
5 5 7 5 5 7 5 5 7 5 5 7 5 5 7 5 5 7 5 5 7 5 5 7 5 5 7 5 5 7 5 5 7 5 5 7 5 5 7 125 104 255 5 5 7 5 5 7 5 5 7 5 5 7 5 5 7 5 5 7 5 5 7 125 104 255 5 5 7 5 5 7 40 40 52 40 40 52 40 40 52 40 40 52 40 40 52 40 40 52 40 40 52 40 40 52 40 40 52 40 40 52 40 40 52 40 40 52 40 40 52 40 40 52 40 40 52 40 40 52 5 5 7 5 5 7 5 5 7 5 5 7 5 5 7 125 104 255 5 5 7 5 5 7 5 5 7 5 5 7 5 5 7 5 5 7 5 5 7 125 104 255 5 5 7 5 5 7 5 5 7 5 5 7 5 5 7 5 5 7 5 5 7 5 5 7 5 5 7 5 5 7
5 5 7 5 5 7 5 5 7 5 5 7 5 5 7 5 5 7 5 5 7 5 5 7 5 5 7 5 5 7 5 5 7 5 5 7 5 5 7 5 5 7 125 104 255 5 5 7 5 5 7 5 5 7 5 5 7 5 5 7 5 5 7 5 5 7 125 104 255 5 5 7 40 40 52 40 40 52 40 40 52 40 40 52 40 40 52 40 40 52 40 40 52 40 40 52 40 40 52 40 40 52 40 40 52 40 40 52 40 40 52 40 40 52 40 40 52 40 40 52 5 5 7 5 5 7 5 5 7 5 5 7 5 5 7 5 5 7 125 104 255 5 5 7 5 5 7 5 5 7 5 5 7 5 5 7 5 5 7 5 5 7 125 104 255 5 5 7 5 5 7 5 5 7 5 5 7 5 5 7 5 5 7 5 5 7 5 5 7 5 5 7
5 5 7 5 5 7 5 5 7 5 5 7 5 5 7 5 5 7 5 5 7 5 5 7 5 5 7 5 5 7 5 5 7 5 5 7 5 5 7 5 5 7 5 5 7 125 104 255 5 5 7 5 5 7 5 5 7 5 5 7 5 5 7 5 5 7 5 5 7 125 104 255 40 40 52 40 40 52 40 40 52 40 40 52 40 40 52 40 40 52 40 40 52 40 40 52 40 40 52 40 40 52 40 40 52 40 40 52 40 40 52 40 40 52 40 40 52 40 40 52 5 5 7 5 5 7 5 5 7 5 5 7 5 5 7 5 5 7 5 5 7 125 104 255 5 5 7 5 5 7 5 5 7 5 5 7 5 5 7 5 5 7 5 5 7 125 104 255 5 5 7 5 5 7 5 5 7 5 5 7 5 5 7 5 5 7 5 5 7 5 5 7
5 5 7 5 5 7 5 5 7 5 5 7 5 5 7 5 5 7 5 5 7 5 5 7 5 5 7 5 5 7 5 5 7 5 5 7 5 5 7 5 5 7 5 5 7 125 104 255 5 5 7 5 5 7 5 5 7 5 5 7 5 5 7 5 5 7 125 104 255 125 104 255 40 40 52 40 40 52 40 40 52 40 40 52 40 40 52 40 40 52 40 40 52 40 40 52 40 40 52 40 40 52 40 40 52 40 40 52 40 40 52 40 40 52 40 40 52 40 40 52 5 5 7 5 5 7 5 5 7 5 5 7 5 5 7 5 5 7 5 5 7 125 104 255 5 5 7 5 5 7 5 5 7 5 5 7 5 5 7 5 5 7 5 5 7 125 104 255 5 5 7 5 5 7 5 5 7 5 5 7 5 5 7 5 5 7 5 5 7 5 5 7
5 5 7 5 5 7 5 5 7 5 5 7 5 5 7 5 5 7 5 5 7 5 5 7 5 5 7 5 5 7 5 5 7 5 5 7 5 5 7 5 5 7 5 5 7 5 5 7 125 104 255 5 5 7 5 5 7 5 5 7 125 104 255 125 104 255 5 5 7 5 5 7 40 40 52 40 40 52 40 40 52 40 40 52 40 40 52 40 40 52 40 40 52 40 40 52 40 40 52 40 40 52 40 40 52 40 40 52 40 40 52 40 40 52 40 40 52 40 40 52 125 104 255 5 5 7 5 5 7 5 5 7 5 5 7 5 5 7 5 5 7 5 5 7 125 104 255 5 5 7 5 5 7 5 5 7 5 5 7 5 5 7 5 5 7 5 5 7 125 104 255 5 5 7 5 5 7 5 5 7 5 5 7 5 5 7 5 5 7 5 5 7
5 5 7 5 5 7 5 5 7 5 5 7 5 5 7 5 5 7 5 5 7 5 5 7 5 5 7 5 5 7 5 5 7 5 5 7 5 5 7 5 5 7 5 5 7 5 5 7 5 5 7 125 104 255 125 104 255 125 104 255 5 5 7 5 5 7 5 5 7 5 5 7 5 5 7 125 104 255 125 104 255 125 104 255 5 5 7 5 5 7 5 5 7 5 5 7 5 5 7 125 104 255 5 5 7 5 5 7 5 5 7 5 5 7 5 5 7 5 5 7 5 5 7 125 104 255 5 5 7 5 5 7 5 5 7 5 5 7 5 5 7 5 5 7 5 5 7 125 104 255 5 5 7 5 5 7 5 5 7 5 5 7 5 5 7 5 5 7 5 5 7 125 104 255 5 5 7 5 5 7 5 5 7 5 5 7 5 5 7 5 5 7
5 5 7 5 5 7 5 5 7 5 5 7 5 5 7 5 5 7 5 5 7 5 5 7 5 5 7 5 5 7 5 5 7 5 5 7 5 5 7 5 5 7 5 5 7 5 5 7 125 104 255 125 104 255 125 104 255 5 5 7 5 5 7 5 5 7 5 5 7 5 5 7 125 104 255 125 104 255 125 104 255 5 5 7 5 5 7 5 5 7 5 5 7 5 5 7 5 5 7 5 5 7 125 104 255 5 5 7 5 5 7 5 5 7 5 5 7 5 5 7 5 5 7 5 5 7 125 104 255 5 5 7 5 5 7 5 5 7 5 5 7 5 5 7 5 5 7 5 5 7 125 104 255 5 5 7 5 5 7 5 5 7 5 5 7 5 5 7 5 5 7 5 5 7 125 104 255 5 5 7 5 5 7 5 5 7 5 5 7 5 5 7
5 5 7 5 5 7 5 5 7 5 5 7 5 5 7 5 5 7 5 5 7 5 5 7 5 5 7 5 5 7 5 5 7 5 5 7 5 5 7 5 5 7 125 104 255 125 104 255 5 5 7 5 5 7 5 5 7 125 104 255 5 5 7 5 5 7 125 104 255 125 104 255 5 5 7 5 5 7 5 5 7 125 104 255 5 5 7 5 5 7 5 5 7 5 5 7 5 5 7 5 5 7 5 5 7 125 104 255 5 5 7 5 5 7 5 5 7 5 5 7 5 5 7 5 5 7 5 5 7 125 104 255 5 5 7 5 5 7 5 5 7 5 5 7 5 5 7 5 5 7 5 5 7 125 104 255 5 5 7 5 5 7 5 5 7 5 5 7 5 5 7 5 5 7 5 5 7 125 104 255 5 5 7 5 5 7 5 5 7 5 5 7
5 5 7 5 5 7 5 5 7 5 5 7 5 5 7 5 5 7 5 5 7 5 5 7 5 5 7 5 5 7 5 5 7 5 5 7 125 104 255 125 104 255 5 5 7 5 5 7 5 5 7 5 5 7 5 5 7 5 5 7 125 104 255 125 104 255 5 5 7 5 5 7 5 5 7 5 5 7 5 5 7 5 5 7 125 104 255 5 5 7 5 5 7 5 5 7 5 5 7 5 5 7 5 5 7 5 5 7 125 104 255 5 5 7 5 5 7 5 5 7 5 5 7 5 5 7 5 5 7 5 5 7 125 104 255 5 5 7 5 5 7 5 5 7 5 5 7 5 5 7 5 5 7 5 5 7 125 104 255 5 5 7 5 5 7 5 5 7 5 5 7 5 5 7 5 5 7 5 5 7 125 104 255 5 5 7 5 5 7 5 5 7
5 5 7 5 5 7 5 5 7 5 5 7 5 5 7 5 5 7 5 5 7 5 5 7 5 5 7 5 5 7 125 104 255 125 104 255 5 5 7 5 5 7 5 5 7 5 5 7 5 5 7 5 5 7 125 104 255 125 104 255 125 104 255 5 5 7 5 5 7 5 5 7 5 5 7 5 5 7 5 5 7 5 5 7 125 104 255 5 5 7 5 5 7 5 5 7 5 5 7 5 5 7 5 5 7 5 5 7 125 104 255 5 5 7 5 5 7 5 5 7 5 5 7 5 5 7 5 5 7 5 5 7 125 104 255 5 5 7 5 5 7 5 5 7 5 5 7 5 5 7 5 5 7 5 5 7 125 104 255 5 5 7 5 5 7 5 5 7 5 5 7 5 5 7 5 5 7 5 5 7 125 104 255 5 5 7 5 5 7 5 5 7
5 5 7 5 5 7 5 5 7 5 5 7 5 5 7 5 5 7 5 5 7 5 5 7 125 104 255 125 104 255 5 5 7 5 5 7 5 5 7 5 5 7 5 5 7 5 5 7 125 104 255 125 104 255 5 5 7 5 5 7 5 5 7 125 104 255 5 5 7 5 5 7 5 5 7 5 5 7 5 5 7 5 5 7 5 5 7 125 104 255 5 5 7 5 5 7 5 5 7 5 5 7 5 5 7 5 5 7 5 5 7 125 104 255 5 5 7 5 5 7 5 5 7 5 5 7 5 5 7 5 5 7 5 5 7 125 104 255 5 5 7 5 5 7 5 5 7 5 5 7 5 5 7 5 5 7 5 5 7 125 104 255 5 5 7 5 5 7 5 5 7 5 5 7 5 5 7 5 5 7 5 5 7 125 104 255 5 5 7 5 5 7
5 5 7 5 5 7 5 5 7 5 5 7 5 5 7 5 5 7 125 104 255 125 104 255 5 5 7 5 5 7 5 5 7 5 5 7 5 5 7 5 5 7 125 104 255 125 104 255 5 5 7 5 5 7 5 5 7 5 5 7 5 5 7 5 5 7 125 104 255 5 5 7 5 5 7 5 5 7 5 5 7 5 5 7 5 5 7 5 5 7 125 104 255 5 5 7 5 5 7 5 5 7 5 5 7 5 5 7 5 5 7 5 5 7 125 104 255 5 5 7 5 5 7 5 5 7 5 5 7 5 5 7 5 5 7 5 5 7 125 104 255 5 5 7 5 5 7 5 5 7 5 5 7 5 5 7 5 5 7 5 5 7 125 104 255 5 5 7 5 5 7 5 5 7 5 5 7 5 5 7 5 5 7 5 5 7 125 104 255 5 5 7
5 5 7 5 5 7 5 5 7 5 5 7 5 5 7 5 5 7 5 5 7 5 5 7 5 5 7 5 5 7 5 5 7 5 5 7 5 5 7 5 5 7 5 5 7 5 5 7 5 5 7 5 5 7 5 5 7 5 5 7 5 5 7 5 5 7 5 5 7 5 5 7 5 5 7 5 5 7 5 5 7 5 5 7 5 5 7 5 5 7 5 5 7 5 5 7 5 5 7 5 5 7 5 5 7 5 5 7 5 5 7 5 5 7 5 5 7 5 5 7 5 5 7 5 5 7 5 5 7 5 5 7 5 5 7 5 5 7 5 5 7 5 5 7 5 5 7 5 5 7 5 5 7 5 5 7 5 5 7 5 5 7 5 5 7 5 5 7 5 5 7 5 5 7 5 5 7 5 5 7 5 5 7 5 5 7 5 5 7 5 5 7
5 5 7 5 5 7 5 5 7 5 5 7 5 5 7 5 5 7 5 5 7 5 5 7 5 5 7 5 5 7 5 5 7 5 5 7 5 5 7 5 5 7 5 5 7 5 5 7 5 5 7 5 5 7 5 5 7 5 5 7 5 5 7 5 5 7 5 5 7 5 5 7 5 5 7 5 5 7 5 5 7 5 5 7 5 5 7 5 5 7 5 5 7 5 5 7 5 5 7 5 5 7 5 5 7 5 5 7 5 5 7 5 5 7 5 5 7 5 5 7 5 5 7 5 5 7 5 5 7 5 5 7 5 5 7 5 5 7 5 5 7 5 5 7 5 5 7 5 5 7 5 5 7 5 5 7 5 5 7 5 5 7 5 5 7 5 5 7 5 5 7 5 5 7 5 5 7 5 5 7 5 5 7 5 5 7 5 5 7 5 5 7
5 5 7 5 5 7 5 5 7 5 5 7 5 5 7 5 5 7 5 5 7 5 5 7 5 5 7 5 5 7 5 5 7 5 5 7 5 5 7 5 5 7 5 5 7 5 5 7 5 5 7 5 5 7 5 5 7 5 5 7 5 5 7 5 5 7 5 5 7 5 5 7 5 5 7 5 5 7 5 5 7 5 5 7 5 5 7 5 5 7 5 5 7 5 5 7 5 5 7 5 5 7 5 5 7 5 5 7 5 5 7 5 5 7 5 5 7 5 5 7 5 5 7 5 5 7 5 5 7 5 5 7 5 5 7 5 5 7 5 5 7 5 5 7 5 5 7 5 5 7 5 5 7 5 5 7 5 5 7 5 5 7 5 5 7 5 5 7 5 5 7 5 5 7 5 5 7 5 5 7 5 5 7 5 5 7 5 5 7 5 5 7
5 5 7 5 5 7 5 5 7 5 5 7 5 5 7 5 5 7 5 5 7 5 5 7 5 5 7 5 5 7 5 5 7 5 5 7 5 5 7 5 5 7 5 5 7 5 5 7 5 5 7 5 5 7 5 5 7 5 5 7 5 5 7 5 5 7 5 5 7 5 5 7 5 5 7 5 5 7 5 5 7 5 5 7 5 5 7 5 5 7 5 5 7 5 5 7 5 5 7 5 5 7 5 5 7 5 5 7 5 5 7 5 5 7 5 5 7 5 5 7 5 5 7 5 5 7 5 5 7 5 5 7 5 5 7 5 5 7 5 5 7 5 5 7 5 5 7 5 5 7 5 5 7 5 5 7 5 5 7 5 5 7 5 5 7 5 5 7 5 5 7 5 5 7 5 5 7 5 5 7 5 5 7 5 5 7 5 5 7 5 5 7
5 5 7 5 5 7 5 5 7 5 5 7 5 5 7 5 5 7 5 5 7 5 5 7 5 5 7 5 5 7 5 5 7 5 5 7 5 5 7 5 5 7 5 5 7 5 5 7 5 5 7 5 5 7 5 5 7 5 5 7 5 5 7 5 5 7 5 5 7 5 5 7 5 5 7 5 5 7 5 5 7 5 5 7 5 5 7 5 5 7 5 5 7 5 5 7 5 5 7 5 5 7 5 5 7 5 5 7 5 5 7 5 5 7 5 5 7 5 5 7 5 5 7 5 5 7 5 5 7 5 5 7 5 5 7 5 5 7 5 5 7 5 5 7 5 5 7 5 5 7 5 5 7 5 5 7 5 5 7 5 5 7 5 5 7 5 5 7 5 5 7 5 5 7 5 5 7 5 5 7 5 5 7 5 5 7 5 5 7 5 5 7
5 5 7 5 5 7 5 5 7 5 5 7 5 5 7 5 5 7 5 5 7 5 5 7 5 5 7 5 5 7 5 5 7 5 5 7 5 5 7 5 5 7 5 5 7 5 5 7 5 5 7 5 5 7 5 5 7 5 5 7 5 5 7 5 5 7 5 5 7 5 5 7 5 5 7 5 5 7 5 5 7 5 5 7 5 5 7 5 5 7 5 5 7 5 5 7 5 5 7 5 5 7 5 5 7 5 5 7 5 5 7 5 5 7 5 5 7 5 5 7 5 5 7 5 5 7 5 5 7 5 5 7 5 5 7 5 5 7 5 5 7 5 5 7 5 5 7 5 5 7 5 5 7 5 5 7 5 5 7 5 5 7 5 5 7 5 5 7 5 5 7 5 5 7 5 5 7 5 5 7 5 5 7 5 5 7 5 5 7 5 5 7
5 5 7 5 5 7 5 5 7 5 5 7 5 5 7 5 5 7 5 5 7 5 5 7 5 5 7 5 5 7 5 5 7 5 5 7 5 5 7 5 5 7 5 5 7 5 5 7 5 5 7 5 5 7 5 5 7 5 5 7 5 5 7 5 5 7 5 5 7 5 5 7 5 5 7 5 5 7 5 5 7 5 5 7 5 5 7 5 5 7 5 5 7 5 5 7 5 5 7 5 5 7 5 5 7 5 5 7 5 5 7 5 5 7 5 5 7 5 5 7 5 5 7 5 5 7 5 5 7 5 5 7 5 5 7 5 5 7 5 5 7 5 5 7 5 5 7 5 5 7 5 5 7 5 5 7 5 5 7 5 5 7 5 5 7 5 5 7 5 5 7 5 5 7 5 5 7 5 5 7 5 5 7 5 5 7 5 5 7 5 5 7
