P3
# reel-forge static-card benchmark
64 36
255
5 5 7 5 5 7 5 5 7 5 5 7 5 5 7 5 5 7 5 5 7 5 5 7 5 5 7 5 5 7 5 5 7 5 5 7 5 5 7 5 5 7 5 5 7 5 5 7 5 5 7 5 5 7 5 5 7 5 5 7 5 5 7 5 5 7 5 5 7 5 5 7 5 5 7 5 5 7 5 5 7 5 5 7 5 5 7 5 5 7 5 5 7 5 5 7 5 5 7 5 5 7 5 5 7 5 5 7 5 5 7 5 5 7 5 5 7 5 5 7 5 5 7 5 5 7 5 5 7 5 5 7 5 5 7 5 5 7 5 5 7 5 5 7 5 5 7 5 5 7 5 5 7 5 5 7 5 5 7 5 5 7 5 5 7 5 5 7 5 5 7 5 5 7 5 5 7 5 5 7 5 5 7 5 5 7 5 5 7 5 5 7
5 5 7 5 5 7 5 5 7 5 5 7 5 5 7 5 5 7 5 5 7 5 5 7 5 5 7 5 5 7 5 5 7 5 5 7 5 5 7 5 5 7 5 5 7 5 5 7 5 5 7 5 5 7 5 5 7 5 5 7 5 5 7 5 5 7 5 5 7 5 5 7 5 5 7 5 5 7 5 5 7 5 5 7 5 5 7 5 5 7 5 5 7 5 5 7 5 5 7 5 5 7 5 5 7 5 5 7 5 5 7 5 5 7 5 5 7 5 5 7 5 5 7 5 5 7 5 5 7 5 5 7 5 5 7 5 5 7 5 5 7 5 5 7 5 5 7 5 5 7 5 5 7 5 5 7 5 5 7 5 5 7 5 5 7 5 5 7 5 5 7 5 5 7 5 5 7 5 5 7 5 5 7 5 5 7 5 5 7 5 5 7
5 5 7 5 5 7 5 5 7 5 5 7 5 5 7 5 5 7 5 5 7 5 5 7 5 5 7 5 5 7 5 5 7 5 5 7 5 5 7 5 5 7 5 5 7 5 5 7 5 5 7 5 5 7 5 5 7 5 5 7 5 5 7 5 5 7 5 5 7 5 5 7 5 5 7 5 5 7 5 5 7 5 5 7 5 5 7 5 5 7 5 5 7 5 5 7 5 5 7 5 5 7 5 5 7 5 5 7 5 5 7 5 5 7 5 5 7 5 5 7 5 5 7 5 5 7 5 5 7 5 5 7 5 5 7 5 5 7 5 5 7 5 5 7 5 5 7 5 5 7 5 5 7 5 5 7 5 5 7 5 5 7 5 5 7 5 5 7 5 5 7 5 5 7 5 5 7 5 5 7 5 5 7 5 5 7 5 5 7 5 5 7
5 5 7 5 5 7 5 5 7 5 5 7 5 5 7 5 5 7 5 5 7 5 5 7 5 5 7 5 5 7 5 5 7 5 5 7 5 5 7 5 5 7 5 5 7 5 5 7 5 5 7 5 5 7 5 5 7 5 5 7 5 5 7 5 5 7 5 5 7 5 5 7 5 5 7 5 5 7 5 5 7 5 5 7 5 5 7 5 5 7 5 5 7 5 5 7 5 5 7 5 5 7 5 5 7 5 5 7 5 5 7 5 5 7 5 5 7 5 5 7 5 5 7 5 5 7 5 5 7 5 5 7 5 5 7 5 5 7 5 5 7 5 5 7 5 5 7 5 5 7 5 5 7 5 5 7 5 5 7 5 5 7 5 5 7 5 5 7 5 5 7 5 5 7 5 5 7 5 5 7 5 5 7 5 5 7 5 5 7 5 5 7
5 5 7 5 5 7 5 5 7 5 5 7 5 5 7 5 5 7 5 5 7 5 5 7 5 5 7 5 5 7 5 5 7 5 5 7 5 5 7 5 5 7 5 5 7 5 5 7 5 5 7 5 5 7 5 5 7 5 5 7 5 5 7 5 5 7 5 5 7 5 5 7 5 5 7 5 5 7 5 5 7 5 5 7 5 5 7 5 5 7 5 5 7 5 5 7 5 5 7 5 5 7 5 5 7 5 5 7 5 5 7 5 5 7 5 5 7 5 5 7 5 5 7 5 5 7 5 5 7 5 5 7 5 5 7 5 5 7 5 5 7 5 5 7 5 5 7 5 5 7 5 5 7 5 5 7 5 5 7 5 5 7 5 5 7 5 5 7 5 5 7 5 5 7 5 5 7 5 5 7 5 5 7 5 5 7 5 5 7 5 5 7
5 5 7 5 5 7 5 5 7 5 5 7 5 5 7 5 5 7 5 5 7 5 5 7 5 5 7 5 5 7 5 5 7 5 5 7 5 5 7 5 5 7 5 5 7 5 5 7 5 5 7 5 5 7 5 5 7 5 5 7 5 5 7 5 5 7 5 5 7 5 5 7 5 5 7 5 5 7 5 5 7 5 5 7 5 5 7 5 5 7 5 5 7 5 5 7 5 5 7 5 5 7 5 5 7 5 5 7 5 5 7 5 5 7 5 5 7 5 5 7 5 5 7 5 5 7 5 5 7 5 5 7 5 5 7 5 5 7 5 5 7 5 5 7 5 5 7 5 5 7 5 5 7 5 5 7 5 5 7 5 5 7 5 5 7 5 5 7 5 5 7 5 5 7 5 5 7 5 5 7 5 5 7 5 5 7 5 5 7 5 5 7
5 5 7 5 5 7 5 5 7 5 5 7 5 5 7 5 5 7 5 5 7 5 5 7 5 5 7 5 5 7 5 5 7 5 5 7 5 5 7 5 5 7 5 5 7 5 5 7 5 5 7 5 5 7 5 5 7 5 5 7 5 5 7 5 5 7 5 5 7 5 5 7 5 5 7 5 5 7 5 5 7 5 5 7 5 5 7 5 5 7 5 5 7 5 5 7 5 5 7 5 5 7 5 5 7 5 5 7 5 5 7 5 5 7 5 5 7 5 5 7 5 5 7 5 5 7 5 5 7 5 5 7 5 5 7 5 5 7 5 5 7 5 5 7 5 5 7 5 5 7 5 5 7 5 5 7 5 5 7 5 5 7 5 5 7 5 5 7 5 5 7 5 5 7 5 5 7 5 5 7 5 5 7 5 5 7 5 5 7 5 5 7
5 5 7 5 5 7 5 5 7 5 5 7 5 5 7 5 5 7 5 5 7 5 5 7 17 17 26 17 17 26 17 17 26 17 17 26 17 17 26 17 17 26 17 17 26 17 17 26 17 17 26 17 17 26 17 17 26 17 17 26 17 17 26 17 17 26 17 17 26 17 17 26 17 17 26 17 17 26 17 17 26 17 17 26 17 17 26 17 17 26 17 17 26 17 17 26 17 17 26 17 17 26 17 17 26 17 17 26 17 17 26 17 17 26 17 17 26 17 17 26 17 17 26 17 17 26 17 17 26 17 17 26 17 17 26 17 17 26 17 17 26 17 17 26 17 17 26 17 17 26 17 17 26 17 17 26 17 17 26 17 17 26 17 17 26 17 17 26 5 5 7 5 5 7 5 5 7 5 5 7 5 5 7 5 5 7 5 5 7 5 5 7
5 5 7 5 5 7 5 5 7 5 5 7 5 5 7 5 5 7 5 5 7 5 5 7 17 17 26 17 17 26 17 17 26 17 17 26 17 17 26 17 17 26 17 17 26 17 17 26 17 17 26 17 17 26 17 17 26 17 17 26 17 17 26 17 17 26 17 17 26 17 17 26 17 17 26 17 17 26 17 17 26 17 17 26 17 17 26 17 17 26 17 17 26 17 17 26 17 17 26 17 17 26 17 17 26 17 17 26 17 17 26 17 17 26 17 17 26 17 17 26 17 17 26 17 17 26 17 17 26 17 17 26 17 17 26 17 17 26 17 17 26 17 17 26 17 17 26 17 17 26 17 17 26 17 17 26 17 17 26 17 17 26 17 17 26 17 17 26 5 5 7 5 5 7 5 5 7 5 5 7 5 5 7 5 5 7 5 5 7 5 5 7
5 5 7 5 5 7 5 5 7 5 5 7 5 5 7 5 5 7 5 5 7 5 5 7 17 17 26 17 17 26 17 17 26 17 17 26 17 17 26 17 17 26 17 17 26 17 17 26 17 17 26 17 17 26 17 17 26 17 17 26 17 17 26 17 17 26 17 17 26 17 17 26 17 17 26 17 17 26 17 17 26 17 17 26 17 17 26 17 17 26 17 17 26 17 17 26 17 17 26 17 17 26 17 17 26 17 17 26 17 17 26 17 17 26 17 17 26 17 17 26 17 17 26 17 17 26 17 17 26 17 17 26 17 17 26 17 17 26 17 17 26 17 17 26 17 17 26 17 17 26 17 17 26 17 17 26 17 17 26 17 17 26 17 17 26 17 17 26 5 5 7 5 5 7 5 5 7 5 5 7 5 5 7 5 5 7 5 5 7 5 5 7
5 5 7 5 5 7 5 5 7 5 5 7 5 5 7 5 5 7 5 5 7 5 5 7 17 17 26 17 17 26 17 17 26 17 17 26 17 17 26 17 17 26 255 255 255 255 255 255 255 255 255 255 255 255 255 255 255 255 255 255 255 255 255 255 255 255 255 255 255 255 255 255 255 255 255 255 255 255 255 255 255 255 255 255 17 17 26 17 17 26 17 17 26 17 17 26 17 17 26 17 17 26 17 17 26 17 17 26 17 17 26 17 17 26 17 17 26 17 17 26 17 17 26 17 17 26 17 17 26 17 17 26 17 17 26 17 17 26 17 17 26 17 17 26 17 17 26 17 17 26 17 17 26 17 17 26 17 17 26 17 17 26 17 17 26 17 17 26 5 5 7 5 5 7 5 5 7 5 5 7 5 5 7 5 5 7 5 5 7 5 5 7
5 5 7 5 5 7 5 5 7 5 5 7 5 5 7 5 5 7 5 5 7 5 5 7 17 17 26 17 17 26 17 17 26 17 17 26 17 17 26 17 17 26 17 17 26 17 17 26 17 17 26 17 17 26 17 17 26 17 17 26 17 17 26 17 17 26 17 17 26 17 17 26 17 17 26 17 17 26 17 17 26 17 17 26 17 17 26 17 17 26 17 17 26 17 17 26 17 17 26 17 17 26 17 17 26 17 17 26 17 17 26 17 17 26 17 17 26 17 17 26 17 17 26 17 17 26 17 17 26 17 17 26 17 17 26 17 17 26 17 17 26 17 17 26 17 17 26 17 17 26 17 17 26 17 17 26 17 17 26 17 17 26 17 17 26 17 17 26 5 5 7 5 5 7 5 5 7 5 5 7 5 5 7 5 5 7 5 5 7 5 5 7
5 5 7 5 5 7 5 5 7 5 5 7 5 5 7 5 5 7 5 5 7 5 5 7 17 17 26 17 17 26 17 17 26 17 17 26 190 190 205 190 190 205 190 190 205 190 190 205 190 190 205 190 190 205 190 190 205 190 190 205 190 190 205 190 190 205 190 190 205 190 190 205 190 190 205 190 190 205 190 190 205 190 190 205 190 190 205 190 190 205 190 190 205 190 190 205 190 190 205 190 190 205 190 190 205 190 190 205 190 190 205 190 190 205 190 190 205 190 190 205 190 190 205 190 190 205 190 190 205 190 190 205 190 190 205 190 190 205 190 190 205 190 190 205 190 190 205 190 190 205 190 190 205 190 190 205 190 190 205 17 17 26 17 17 26 17 17 26 5 5 7 5 5 7 5 5 7 5 5 7 5 5 7 5 5 7 5 5 7 5 5 7
5 5 7 5 5 7 5 5 7 5 5 7 5 5 7 5 5 7 5 5 7 5 5 7 17 17 26 17 17 26 17 17 26 17 17 26 190 190 205 190 190 205 190 190 205 190 190 205 190 190 205 190 190 205 190 190 205 190 190 205 190 190 205 190 190 205 190 190 205 190 190 205 190 190 205 190 190 205 190 190 205 190 190 205 190 190 205 190 190 205 190 190 205 190 190 205 190 190 205 190 190 205 190 190 205 190 190 205 190 190 205 190 190 205 190 190 205 190 190 205 190 190 205 190 190 205 190 190 205 190 190 205 190 190 205 190 190 205 190 190 205 190 190 205 190 190 205 190 190 205 190 190 205 190 190 205 190 190 205 17 17 26 17 17 26 17 17 26 5 5 7 5 5 7 5 5 7 5 5 7 5 5 7 5 5 7 5 5 7 5 5 7
5 5 7 5 5 7 5 5 7 5 5 7 5 5 7 5 5 7 5 5 7 5 5 7 17 17 26 17 17 26 17 17 26 17 17 26 190 190 205 190 190 205 190 190 205 190 190 205 190 190 205 190 190 205 190 190 205 190 190 205 190 190 205 190 190 205 190 190 205 190 190 205 190 190 205 190 190 205 190 190 205 190 190 205 190 190 205 190 190 205 190 190 205 190 190 205 190 190 205 190 190 205 190 190 205 190 190 205 190 190 205 190 190 205 190 190 205 190 190 205 190 190 205 190 190 205 190 190 205 190 190 205 190 190 205 190 190 205 190 190 205 190 190 205 190 190 205 190 190 205 190 190 205 190 190 205 190 190 205 17 17 26 17 17 26 17 17 26 5 5 7 5 5 7 5 5 7 5 5 7 5 5 7 5 5 7 5 5 7 5 5 7
5 5 7 5 5 7 5 5 7 5 5 7 5 5 7 5 5 7 5 5 7 5 5 7 17 17 26 17 17 26 17 17 26 17 17 26 17 17 26 17 17 26 17 17 26 17 17 26 17 17 26 17 17 26 17 17 26 17 17 26 17 17 26 17 17 26 17 17 26 17 17 26 17 17 26 17 17 26 17 17 26 17 17 26 17 17 26 17 17 26 17 17 26 17 17 26 17 17 26 17 17 26 17 17 26 17 17 26 17 17 26 17 17 26 17 17 26 17 17 26 17 17 26 17 17 26 17 17 26 17 17 26 17 17 26 17 17 26 17 17 26 17 17 26 17 17 26 17 17 26 17 17 26 17 17 26 17 17 26 17 17 26 17 17 26 17 17 26 5 5 7 5 5 7 5 5 7 5 5 7 5 5 7 5 5 7 5 5 7 5 5 7
5 5 7 5 5 7 5 5 7 5 5 7 5 5 7 5 5 7 5 5 7 5 5 7 17 17 26 17 17 26 17 17 26 17 17 26 17 17 26 17 17 26 17 17 26 17 17 26 17 17 26 17 17 26 17 17 26 17 17 26 17 17 26 17 17 26 17 17 26 17 17 26 17 17 26 17 17 26 17 17 26 17 17 26 17 17 26 17 17 26 17 17 26 17 17 26 17 17 26 17 17 26 17 17 26 17 17 26 17 17 26 17 17 26 17 17 26 17 17 26 17 17 26 17 17 26 17 17 26 17 17 26 17 17 26 17 17 26 17 17 26 17 17 26 17 17 26 17 17 26 17 17 26 17 17 26 17 17 26 17 17 26 17 17 26 17 17 26 5 5 7 5 5 7 5 5 7 5 5 7 5 5 7 5 5 7 5 5 7 5 5 7
5 5 7 5 5 7 5 5 7 5 5 7 5 5 7 5 5 7 5 5 7 5 5 7 17 17 26 17 17 26 17 17 26 17 17 26 160 160 170 160 160 170 160 160 170 160 160 170 160 160 170 160 160 170 160 160 170 160 160 170 160 160 170 160 160 170 160 160 170 160 160 170 160 160 170 160 160 170 160 160 170 160 160 170 160 160 170 160 160 170 160 160 170 160 160 170 160 160 170 160 160 170 160 160 170 160 160 170 160 160 170 160 160 170 160 160 170 160 160 170 160 160 170 160 160 170 160 160 170 160 160 170 160 160 170 160 160 170 160 160 170 160 160 170 160 160 170 160 160 170 17 17 26 17 17 26 17 17 26 17 17 26 17 17 26 17 17 26 5 5 7 5 5 7 5 5 7 5 5 7 5 5 7 5 5 7 5 5 7 5 5 7
5 5 7 5 5 7 5 5 7 5 5 7 5 5 7 5 5 7 5 5 7 5 5 7 17 17 26 17 17 26 17 17 26 17 17 26 160 160 170 160 160 170 160 160 170 160 160 170 160 160 170 160 160 170 160 160 170 160 160 170 160 160 170 160 160 170 160 160 170 160 160 170 160 160 170 160 160 170 160 160 170 160 160 170 160 160 170 160 160 170 160 160 170 160 160 170 160 160 170 160 160 170 160 160 170 160 160 170 160 160 170 160 160 170 160 160 170 160 160 170 160 160 170 160 160 170 160 160 170 160 160 170 160 160 170 160 160 170 160 160 170 160 160 170 160 160 170 160 160 170 17 17 26 17 17 26 17 17 26 17 17 26 17 17 26 17 17 26 5 5 7 5 5 7 5 5 7 5 5 7 5 5 7 5 5 7 5 5 7 5 5 7
5 5 7 5 5 7 5 5 7 5 5 7 5 5 7 5 5 7 5 5 7 5 5 7 17 17 26 17 17 26 17 17 26 17 17 26 160 160 170 160 160 170 160 160 170 160 160 170 160 160 170 160 160 170 160 160 170 160 160 170 160 160 170 160 160 170 160 160 170 160 160 170 160 160 170 160 160 170 160 160 170 160 160 170 160 160 170 160 160 170 160 160 170 160 160 170 160 160 170 160 160 170 160 160 170 160 160 170 160 160 170 160 160 170 160 160 170 160 160 170 160 160 170 160 160 170 160 160 170 160 160 170 160 160 170 160 160 170 160 160 170 160 160 170 160 160 170 160 160 170 17 17 26 17 17 26 17 17 26 17 17 26 17 17 26 17 17 26 5 5 7 5 5 7 5 5 7 5 5 7 5 5 7 5 5 7 5 5 7 5 5 7
5 5 7 5 5 7 5 5 7 5 5 7 5 5 7 5 5 7 5 5 7 5 5 7 17 17 26 17 17 26 17 17 26 17 17 26 17 17 26 17 17 26 17 17 26 17 17 26 17 17 26 17 17 26 17 17 26 17 17 26 17 17 26 17 17 26 17 17 26 17 17 26 17 17 26 17 17 26 17 17 26 17 17 26 17 17 26 17 17 26 17 17 26 17 17 26 17 17 26 17 17 26 17 17 26 17 17 26 17 17 26 17 17 26 17 17 26 17 17 26 17 17 26 17 17 26 17 17 26 17 17 26 17 17 26 17 17 26 17 17 26 17 17 26 17 17 26 17 17 26 17 17 26 17 17 26 17 17 26 17 17 26 17 17 26 17 17 26 5 5 7 5 5 7 5 5 7 5 5 7 5 5 7 5 5 7 5 5 7 5 5 7
5 5 7 5 5 7 5 5 7 5 5 7 5 5 7 5 5 7 5 5 7 5 5 7 17 17 26 17 17 26 17 17 26 17 17 26 17 17 26 17 17 26 17 17 26 17 17 26 17 17 26 17 17 26 17 17 26 17 17 26 17 17 26 17 17 26 17 17 26 17 17 26 17 17 26 17 17 26 17 17 26 17 17 26 17 17 26 17 17 26 17 17 26 17 17 26 17 17 26 17 17 26 17 17 26 17 17 26 17 17 26 17 17 26 17 17 26 17 17 26 17 17 26 17 17 26 17 17 26 17 17 26 17 17 26 17 17 26 17 17 26 17 17 26 17 17 26 17 17 26 17 17 26 17 17 26 17 17 26 17 17 26 17 17 26 17 17 26 5 5 7 5 5 7 5 5 7 5 5 7 5 5 7 5 5 7 5 5 7 5 5 7
5 5 7 5 5 7 5 5 7 5 5 7 5 5 7 5 5 7 5 5 7 5 5 7 17 17 26 17 17 26 17 17 26 17 17 26 160 160 170 160 160 170 160 160 170 160 160 170 160 160 170 160 160 170 160 160 170 160 160 170 160 160 170 160 160 170 160 160 170 160 160 170 160 160 170 160 160 170 160 160 170 160 160 170 160 160 170 160 160 170 160 160 170 160 160 170 160 160 170 160 160 170 160 160 170 160 160 170 160 160 170 160 160 170 160 160 170 160 160 170 160 160 170 160 160 170 160 160 170 160 160 170 160 160 170 160 160 170 160 160 170 17 17 26 17 17 26 17 17 26 17 17 26 17 17 26 17 17 26 17 17 26 17 17 26 17 17 26 5 5 7 5 5 7 5 5 7 5 5 7 5 5 7 5 5 7 5 5 7 5 5 7
5 5 7 5 5 7 5 5 7 5 5 7 5 5 7 5 5 7 5 5 7 5 5 7 17 17 26 17 17 26 17 17 26 17 17 26 160 160 170 160 160 170 160 160 170 160 160 170 160 160 170 160 160 170 160 160 170 160 160 170 160 160 170 160 160 170 160 160 170 160 160 170 160 160 170 160 160 170 160 160 170 160 160 170 160 160 170 160 160 170 160 160 170 160 160 170 160 160 170 160 160 170 160 160 170 160 160 170 160 160 170 160 160 170 160 160 170 160 160 170 160 160 170 160 160 170 160 160 170 160 160 170 160 160 170 160 160 170 160 160 170 17 17 26 17 17 26 17 17 26 17 17 26 17 17 26 17 17 26 17 17 26 17 17 26 17 17 26 5 5 7 5 5 7 5 5 7 5 5 7 5 5 7 5 5 7 5 5 7 5 5 7
5 5 7 5 5 7 5 5 7 5 5 7 5 5 7 5 5 7 5 5 7 5 5 7 17 17 26 17 17 26 17 17 26 17 17 26 160 160 170 160 160 170 160 160 170 160 160 170 160 160 170 160 160 170 160 160 170 160 160 170 160 160 170 160 160 170 160 160 170 160 160 170 160 160 170 160 160 170 160 160 170 160 160 170 160 160 170 160 160 170 160 160 170 160 160 170 160 160 170 160 160 170 160 160 170 160 160 170 160 160 170 160 160 170 160 160 170 160 160 170 160 160 170 160 160 170 160 160 170 160 160 170 160 160 170 160 160 170 160 160 170 17 17 26 17 17 26 17 17 26 17 17 26 17 17 26 17 17 26 17 17 26 17 17 26 17 17 26 5 5 7 5 5 7 5 5 7 5 5 7 5 5 7 5 5 7 5 5 7 5 5 7
5 5 7 5 5 7 5 5 7 5 5 7 5 5 7 5 5 7 5 5 7 5 5 7 17 17 26 17 17 26 17 17 26 17 17 26 17 17 26 17 17 26 17 17 26 17 17 26 17 17 26 17 17 26 17 17 26 17 17 26 17 17 26 17 17 26 17 17 26 17 17 26 17 17 26 17 17 26 17 17 26 17 17 26 17 17 26 17 17 26 17 17 26 17 17 26 17 17 26 17 17 26 17 17 26 17 17 26 17 17 26 17 17 26 17 17 26 17 17 26 17 17 26 17 17 26 17 17 26 17 17 26 17 17 26 17 17 26 17 17 26 17 17 26 17 17 26 17 17 26 17 17 26 17 17 26 17 17 26 17 17 26 17 17 26 17 17 26 5 5 7 5 5 7 5 5 7 5 5 7 5 5 7 5 5 7 5 5 7 5 5 7
5 5 7 5 5 7 5 5 7 5 5 7 5 5 7 5 5 7 5 5 7 5 5 7 17 17 26 17 17 26 17 17 26 17 17 26 17 17 26 17 17 26 17 17 26 17 17 26 17 17 26 17 17 26 17 17 26 17 17 26 17 17 26 17 17 26 17 17 26 17 17 26 17 17 26 17 17 26 17 17 26 17 17 26 17 17 26 17 17 26 17 17 26 17 17 26 17 17 26 17 17 26 17 17 26 17 17 26 17 17 26 17 17 26 17 17 26 17 17 26 17 17 26 17 17 26 17 17 26 17 17 26 17 17 26 17 17 26 17 17 26 17 17 26 17 17 26 17 17 26 17 17 26 17 17 26 17 17 26 17 17 26 17 17 26 17 17 26 5 5 7 5 5 7 5 5 7 5 5 7 5 5 7 5 5 7 5 5 7 5 5 7
5 5 7 5 5 7 5 5 7 5 5 7 5 5 7 5 5 7 5 5 7 5 5 7 17 17 26 17 17 26 17 17 26 17 17 26 17 17 26 17 17 26 17 17 26 17 17 26 17 17 26 17 17 26 17 17 26 17 17 26 17 17 26 17 17 26 17 17 26 17 17 26 17 17 26 17 17 26 17 17 26 17 17 26 17 17 26 17 17 26 17 17 26 17 17 26 17 17 26 17 17 26 17 17 26 17 17 26 17 17 26 17 17 26 17 17 26 17 17 26 17 17 26 17 17 26 17 17 26 17 17 26 17 17 26 17 17 26 17 17 26 17 17 26 17 17 26 17 17 26 17 17 26 17 17 26 17 17 26 17 17 26 17 17 26 17 17 26 5 5 7 5 5 7 5 5 7 5 5 7 5 5 7 5 5 7 5 5 7 5 5 7
5 5 7 5 5 7 5 5 7 5 5 7 5 5 7 5 5 7 5 5 7 5 5 7 17 17 26 17 17 26 17 17 26 17 17 26 17 17 26 17 17 26 17 17 26 17 17 26 17 17 26 17 17 26 17 17 26 17 17 26 17 17 26 17 17 26 17 17 26 17 17 26 17 17 26 17 17 26 17 17 26 17 17 26 17 17 26 17 17 26 17 17 26 17 17 26 17 17 26 17 17 26 17 17 26 17 17 26 17 17 26 17 17 26 17 17 26 17 17 26 17 17 26 17 17 26 17 17 26 17 17 26 17 17 26 17 17 26 17 17 26 17 17 26 17 17 26 17 17 26 17 17 26 17 17 26 17 17 26 17 17 26 17 17 26 17 17 26 5 5 7 5 5 7 5 5 7 5 5 7 5 5 7 5 5 7 5 5 7 5 5 7
5 5 7 5 5 7 5 5 7 5 5 7 5 5 7 5 5 7 5 5 7 5 5 7 5 5 7 5 5 7 5 5 7 5 5 7 5 5 7 5 5 7 5 5 7 5 5 7 5 5 7 5 5 7 5 5 7 5 5 7 5 5 7 5 5 7 5 5 7 5 5 7 5 5 7 5 5 7 5 5 7 5 5 7 5 5 7 5 5 7 5 5 7 5 5 7 5 5 7 5 5 7 5 5 7 5 5 7 5 5 7 5 5 7 5 5 7 5 5 7 5 5 7 5 5 7 5 5 7 5 5 7 5 5 7 5 5 7 5 5 7 5 5 7 5 5 7 5 5 7 5 5 7 5 5 7 5 5 7 5 5 7 5 5 7 5 5 7 5 5 7 5 5 7 5 5 7 5 5 7 5 5 7 5 5 7 5 5 7 5 5 7
5 5 7 5 5 7 5 5 7 5 5 7 5 5 7 5 5 7 5 5 7 5 5 7 5 5 7 5 5 7 5 5 7 5 5 7 5 5 7 5 5 7 5 5 7 5 5 7 5 5 7 5 5 7 5 5 7 5 5 7 5 5 7 5 5 7 5 5 7 5 5 7 5 5 7 5 5 7 5 5 7 5 5 7 5 5 7 5 5 7 5 5 7 5 5 7 5 5 7 5 5 7 5 5 7 5 5 7 5 5 7 5 5 7 5 5 7 5 5 7 5 5 7 5 5 7 5 5 7 5 5 7 5 5 7 5 5 7 5 5 7 5 5 7 5 5 7 5 5 7 5 5 7 5 5 7 5 5 7 5 5 7 5 5 7 5 5 7 5 5 7 5 5 7 5 5 7 5 5 7 5 5 7 5 5 7 5 5 7 5 5 7
5 5 7 5 5 7 5 5 7 5 5 7 5 5 7 5 5 7 5 5 7 5 5 7 5 5 7 5 5 7 5 5 7 5 5 7 5 5 7 5 5 7 5 5 7 5 5 7 5 5 7 5 5 7 5 5 7 5 5 7 5 5 7 5 5 7 5 5 7 5 5 7 5 5 7 5 5 7 5 5 7 5 5 7 5 5 7 5 5 7 5 5 7 5 5 7 5 5 7 5 5 7 5 5 7 5 5 7 5 5 7 5 5 7 5 5 7 5 5 7 5 5 7 5 5 7 5 5 7 5 5 7 5 5 7 5 5 7 5 5 7 5 5 7 5 5 7 5 5 7 5 5 7 5 5 7 5 5 7 5 5 7 5 5 7 5 5 7 5 5 7 5 5 7 5 5 7 5 5 7 5 5 7 5 5 7 5 5 7 5 5 7
5 5 7 5 5 7 5 5 7 5 5 7 5 5 7 5 5 7 5 5 7 5 5 7 5 5 7 5 5 7 5 5 7 5 5 7 5 5 7 5 5 7 5 5 7 5 5 7 5 5 7 5 5 7 5 5 7 5 5 7 5 5 7 5 5 7 5 5 7 5 5 7 5 5 7 5 5 7 5 5 7 5 5 7 5 5 7 5 5 7 5 5 7 5 5 7 5 5 7 5 5 7 5 5 7 5 5 7 5 5 7 5 5 7 5 5 7 5 5 7 5 5 7 5 5 7 5 5 7 5 5 7 5 5 7 5 5 7 5 5 7 5 5 7 5 5 7 5 5 7 5 5 7 5 5 7 5 5 7 5 5 7 5 5 7 5 5 7 5 5 7 5 5 7 5 5 7 5 5 7 5 5 7 5 5 7 5 5 7 5 5 7
5 5 7 5 5 7 5 5 7 5 5 7 5 5 7 5 5 7 5 5 7 5 5 7 5 5 7 5 5 7 5 5 7 5 5 7 5 5 7 5 5 7 5 5 7 5 5 7 5 5 7 5 5 7 5 5 7 5 5 7 5 5 7 5 5 7 5 5 7 5 5 7 5 5 7 5 5 7 5 5 7 5 5 7 5 5 7 5 5 7 5 5 7 5 5 7 5 5 7 5 5 7 5 5 7 5 5 7 5 5 7 5 5 7 5 5 7 5 5 7 5 5 7 5 5 7 5 5 7 5 5 7 5 5 7 5 5 7 5 5 7 5 5 7 5 5 7 5 5 7 5 5 7 5 5 7 5 5 7 5 5 7 5 5 7 5 5 7 5 5 7 5 5 7 5 5 7 5 5 7 5 5 7 5 5 7 5 5 7 5 5 7
5 5 7 5 5 7 5 5 7 5 5 7 5 5 7 5 5 7 5 5 7 5 5 7 5 5 7 5 5 7 5 5 7 5 5 7 5 5 7 5 5 7 5 5 7 5 5 7 5 5 7 5 5 7 5 5 7 5 5 7 5 5 7 5 5 7 5 5 7 5 5 7 5 5 7 5 5 7 5 5 7 5 5 7 5 5 7 5 5 7 5 5 7 5 5 7 5 5 7 5 5 7 5 5 7 5 5 7 5 5 7 5 5 7 5 5 7 5 5 7 5 5 7 5 5 7 5 5 7 5 5 7 5 5 7 5 5 7 5 5 7 5 5 7 5 5 7 5 5 7 5 5 7 5 5 7 5 5 7 5 5 7 5 5 7 5 5 7 5 5 7 5 5 7 5 5 7 5 5 7 5 5 7 5 5 7 5 5 7 5 5 7
5 5 7 5 5 7 5 5 7 5 5 7 5 5 7 5 5 7 5 5 7 5 5 7 5 5 7 5 5 7 5 5 7 5 5 7 5 5 7 5 5 7 5 5 7 5 5 7 5 5 7 5 5 7 5 5 7 5 5 7 5 5 7 5 5 7 5 5 7 5 5 7 5 5 7 5 5 7 5 5 7 5 5 7 5 5 7 5 5 7 5 5 7 5 5 7 5 5 7 5 5 7 5 5 7 5 5 7 5 5 7 5 5 7 5 5 7 5 5 7 5 5 7 5 5 7 5 5 7 5 5 7 5 5 7 5 5 7 5 5 7 5 5 7 5 5 7 5 5 7 5 5 7 5 5 7 5 5 7 5 5 7 5 5 7 5 5 7 5 5 7 5 5 7 5 5 7 5 5 7 5 5 7 5 5 7 5 5 7 5 5 7
