P3
# reel-forge structured benchmark
64 36
255
5 5 7 5 5 7 5 5 7 5 5 7 5 5 7 5 5 7 5 5 7 5 5 7 5 5 7 5 5 7 5 5 7 5 5 7 5 5 7 5 5 7 5 5 7 5 5 7 5 5 7 5 5 7 5 5 7 5 5 7 5 5 7 5 5 7 5 5 7 5 5 7 5 5 7 5 5 7 5 5 7 5 5 7 5 5 7 5 5 7 5 5 7 5 5 7 5 5 7 5 5 7 5 5 7 5 5 7 5 5 7 5 5 7 5 5 7 5 5 7 5 5 7 5 5 7 5 5 7 5 5 7 5 5 7 5 5 7 5 5 7 5 5 7 5 5 7 5 5 7 5 5 7 5 5 7 5 5 7 5 5 7 5 5 7 5 5 7 5 5 7 5 5 7 5 5 7 5 5 7 5 5 7 5 5 7 5 5 7 5 5 7
5 5 7 5 5 7 5 5 7 5 5 7 5 5 7 5 5 7 5 5 7 5 5 7 5 5 7 5 5 7 5 5 7 5 5 7 5 5 7 5 5 7 5 5 7 5 5 7 5 5 7 5 5 7 5 5 7 5 5 7 5 5 7 5 5 7 5 5 7 5 5 7 5 5 7 5 5 7 5 5 7 5 5 7 5 5 7 5 5 7 5 5 7 5 5 7 5 5 7 5 5 7 5 5 7 5 5 7 5 5 7 5 5 7 5 5 7 5 5 7 5 5 7 5 5 7 5 5 7 5 5 7 5 5 7 5 5 7 5 5 7 5 5 7 5 5 7 5 5 7 5 5 7 5 5 7 5 5 7 5 5 7 5 5 7 5 5 7 5 5 7 5 5 7 5 5 7 5 5 7 5 5 7 5 5 7 5 5 7 5 5 7
5 5 7 5 5 7 5 5 7 5 5 7 5 5 7 5 5 7 5 5 7 5 5 7 5 5 7 5 5 7 5 5 7 5 5 7 5 5 7 5 5 7 5 5 7 5 5 7 5 5 7 5 5 7 5 5 7 5 5 7 5 5 7 5 5 7 5 5 7 5 5 7 5 5 7 5 5 7 5 5 7 5 5 7 5 5 7 5 5 7 5 5 7 5 5 7 5 5 7 5 5 7 5 5 7 5 5 7 5 5 7 5 5 7 5 5 7 5 5 7 5 5 7 5 5 7 5 5 7 5 5 7 5 5 7 5 5 7 5 5 7 5 5 7 5 5 7 5 5 7 5 5 7 5 5 7 5 5 7 5 5 7 5 5 7 5 5 7 5 5 7 5 5 7 5 5 7 5 5 7 5 5 7 5 5 7 5 5 7 5 5 7
5 5 7 5 5 7 5 5 7 5 5 7 5 5 7 5 5 7 5 5 7 5 5 7 5 5 7 5 5 7 5 5 7 5 5 7 5 5 7 5 5 7 5 5 7 5 5 7 5 5 7 5 5 7 5 5 7 5 5 7 5 5 7 5 5 7 5 5 7 5 5 7 5 5 7 5 5 7 5 5 7 5 5 7 5 5 7 5 5 7 5 5 7 5 5 7 5 5 7 5 5 7 5 5 7 5 5 7 5 5 7 5 5 7 5 5 7 5 5 7 5 5 7 5 5 7 5 5 7 5 5 7 5 5 7 5 5 7 5 5 7 5 5 7 5 5 7 5 5 7 5 5 7 5 5 7 5 5 7 5 5 7 5 5 7 5 5 7 5 5 7 5 5 7 5 5 7 5 5 7 5 5 7 5 5 7 5 5 7 5 5 7
5 5 7 5 5 7 5 5 7 5 5 7 5 5 7 5 5 7 5 5 7 5 5 7 5 5 7 5 5 7 5 5 7 5 5 7 5 5 7 5 5 7 5 5 7 5 5 7 5 5 7 5 5 7 5 5 7 5 5 7 5 5 7 5 5 7 5 5 7 5 5 7 5 5 7 5 5 7 5 5 7 5 5 7 5 5 7 5 5 7 5 5 7 5 5 7 5 5 7 5 5 7 5 5 7 5 5 7 5 5 7 5 5 7 5 5 7 5 5 7 5 5 7 5 5 7 5 5 7 5 5 7 5 5 7 5 5 7 5 5 7 5 5 7 5 5 7 5 5 7 5 5 7 5 5 7 5 5 7 5 5 7 5 5 7 5 5 7 5 5 7 5 5 7 5 5 7 5 5 7 5 5 7 5 5 7 5 5 7 5 5 7
5 5 7 5 5 7 5 5 7 5 5 7 5 5 7 5 5 7 5 5 7 5 5 7 5 5 7 5 5 7 5 5 7 5 5 7 5 5 7 5 5 7 5 5 7 5 5 7 5 5 7 5 5 7 5 5 7 5 5 7 5 5 7 5 5 7 5 5 7 5 5 7 5 5 7 5 5 7 5 5 7 5 5 7 5 5 7 5 5 7 5 5 7 5 5 7 5 5 7 5 5 7 5 5 7 5 5 7 5 5 7 5 5 7 5 5 7 5 5 7 5 5 7 5 5 7 5 5 7 5 5 7 5 5 7 5 5 7 5 5 7 5 5 7 5 5 7 5 5 7 5 5 7 5 5 7 5 5 7 5 5 7 5 5 7 5 5 7 5 5 7 5 5 7 5 5 7 5 5 7 5 5 7 5 5 7 5 5 7 5 5 7
5 5 7 5 5 7 5 5 7 5 5 7 5 5 7 5 5 7 5 5 7 5 5 7 17 17 26 17 17 26 17 17 26 17 17 26 17 17 26 17 17 26 17 17 26 17 17 26 17 17 26 17 17 26 17 17 26 17 17 26 17 17 26 17 17 26 17 17 26 17 17 26 17 17 26 17 17 26 17 17 26 17 17 26 17 17 26 17 17 26 17 17 26 17 17 26 17 17 26 17 17 26 17 17 26 17 17 26 17 17 26 17 17 26 17 17 26 17 17 26 17 17 26 17 17 26 17 17 26 17 17 26 17 17 26 17 17 26 17 17 26 17 17 26 17 17 26 17 17 26 17 17 26 17 17 26 17 17 26 17 17 26 17 17 26 17 17 26 5 5 7 5 5 7 5 5 7 5 5 7 5 5 7 5 5 7 5 5 7 5 5 7
5 5 7 5 5 7 5 5 7 5 5 7 5 5 7 5 5 7 5 5 7 5 5 7 17 17 26 17 17 26 17 17 26 17 17 26 17 17 26 17 17 26 17 17 26 17 17 26 17 17 26 17 17 26 17 17 26 17 17 26 17 17 26 17 17 26 17 17 26 17 17 26 17 17 26 17 17 26 17 17 26 17 17 26 17 17 26 17 17 26 17 17 26 17 17 26 17 17 26 17 17 26 17 17 26 17 17 26 17 17 26 17 17 26 17 17 26 17 17 26 17 17 26 17 17 26 17 17 26 17 17 26 17 17 26 17 17 26 17 17 26 17 17 26 17 17 26 17 17 26 17 17 26 17 17 26 17 17 26 17 17 26 17 17 26 17 17 26 5 5 7 5 5 7 5 5 7 5 5 7 5 5 7 5 5 7 5 5 7 5 5 7
5 5 7 5 5 7 5 5 7 5 5 7 5 5 7 5 5 7 5 5 7 5 5 7 17 17 26 17 17 26 17 17 26 17 17 26 17 17 26 17 17 26 17 17 26 17 17 26 17 17 26 17 17 26 17 17 26 17 17 26 17 17 26 17 17 26 17 17 26 17 17 26 17 17 26 17 17 26 17 17 26 17 17 26 17 17 26 17 17 26 17 17 26 17 17 26 17 17 26 17 17 26 17 17 26 17 17 26 17 17 26 17 17 26 17 17 26 17 17 26 17 17 26 17 17 26 17 17 26 17 17 26 17 17 26 17 17 26 17 17 26 17 17 26 17 17 26 17 17 26 17 17 26 17 17 26 17 17 26 17 17 26 17 17 26 17 17 26 5 5 7 5 5 7 5 5 7 5 5 7 5 5 7 5 5 7 5 5 7 5 5 7
5 5 7 5 5 7 5 5 7 5 5 7 5 5 7 5 5 7 5 5 7 5 5 7 17 17 26 17 17 26 17 17 26 17 17 26 17 17 26 17 17 26 17 17 26 17 17 26 255 255 255 255 255 255 255 255 255 255 255 255 255 255 255 255 255 255 255 255 255 255 255 255 255 255 255 255 255 255 255 255 255 17 17 26 17 17 26 17 17 26 17 17 26 17 17 26 75 75 85 17 17 26 17 17 26 17 17 26 17 17 26 17 17 26 17 17 26 17 17 26 17 17 26 17 17 26 17 17 26 17 17 26 75 75 85 17 17 26 17 17 26 17 17 26 17 17 26 17 17 26 17 17 26 17 17 26 17 17 26 17 17 26 17 17 26 17 17 26 5 5 7 5 5 7 5 5 7 5 5 7 5 5 7 5 5 7 5 5 7 5 5 7
5 5 7 5 5 7 5 5 7 5 5 7 5 5 7 5 5 7 5 5 7 5 5 7 17 17 26 17 17 26 17 17 26 17 17 26 17 17 26 17 17 26 17 17 26 17 17 26 255 255 255 255 255 255 255 255 255 255 255 255 255 255 255 255 255 255 255 255 255 255 255 255 255 255 255 255 255 255 255 255 255 17 17 26 17 17 26 17 17 26 17 17 26 17 17 26 75 75 85 17 17 26 17 17 26 17 17 26 17 17 26 17 17 26 17 17 26 17 17 26 17 17 26 17 17 26 17 17 26 17 17 26 75 75 85 17 17 26 17 17 26 17 17 26 17 17 26 17 17 26 17 17 26 17 17 26 17 17 26 17 17 26 17 17 26 17 17 26 5 5 7 5 5 7 5 5 7 5 5 7 5 5 7 5 5 7 5 5 7 5 5 7
5 5 7 5 5 7 5 5 7 5 5 7 5 5 7 5 5 7 5 5 7 5 5 7 17 17 26 17 17 26 17 17 26 17 17 26 17 17 26 125 104 255 125 104 255 125 104 255 255 255 255 255 255 255 255 255 255 255 255 255 255 255 255 255 255 255 255 255 255 255 255 255 255 255 255 255 255 255 255 255 255 125 104 255 125 104 255 125 104 255 125 104 255 125 104 255 75 75 85 125 104 255 125 104 255 125 104 255 125 104 255 125 104 255 125 104 255 125 104 255 125 104 255 125 104 255 125 104 255 125 104 255 75 75 85 125 104 255 125 104 255 125 104 255 125 104 255 125 104 255 125 104 255 125 104 255 17 17 26 17 17 26 17 17 26 17 17 26 5 5 7 5 5 7 5 5 7 5 5 7 5 5 7 5 5 7 5 5 7 5 5 7
5 5 7 5 5 7 5 5 7 5 5 7 5 5 7 5 5 7 5 5 7 5 5 7 17 17 26 17 17 26 17 17 26 17 17 26 17 17 26 125 104 255 125 104 255 125 104 255 255 255 255 255 255 255 255 255 255 255 255 255 255 255 255 255 255 255 255 255 255 255 255 255 255 255 255 255 255 255 255 255 255 125 104 255 125 104 255 125 104 255 125 104 255 125 104 255 75 75 85 125 104 255 125 104 255 125 104 255 125 104 255 125 104 255 125 104 255 125 104 255 125 104 255 125 104 255 125 104 255 125 104 255 75 75 85 125 104 255 125 104 255 125 104 255 125 104 255 125 104 255 125 104 255 125 104 255 17 17 26 17 17 26 17 17 26 17 17 26 5 5 7 5 5 7 5 5 7 5 5 7 5 5 7 5 5 7 5 5 7 5 5 7
5 5 7 5 5 7 5 5 7 5 5 7 5 5 7 5 5 7 5 5 7 5 5 7 17 17 26 17 17 26 17 17 26 17 17 26 17 17 26 125 104 255 125 104 255 125 104 255 255 255 255 255 255 255 255 255 255 255 255 255 255 255 255 255 255 255 255 255 255 255 255 255 255 255 255 255 255 255 255 255 255 125 104 255 125 104 255 125 104 255 125 104 255 125 104 255 75 75 85 125 104 255 125 104 255 125 104 255 125 104 255 125 104 255 125 104 255 125 104 255 125 104 255 125 104 255 125 104 255 125 104 255 75 75 85 125 104 255 125 104 255 125 104 255 125 104 255 125 104 255 125 104 255 125 104 255 17 17 26 17 17 26 17 17 26 17 17 26 5 5 7 5 5 7 5 5 7 5 5 7 5 5 7 5 5 7 5 5 7 5 5 7
5 5 7 5 5 7 5 5 7 5 5 7 5 5 7 5 5 7 5 5 7 5 5 7 17 17 26 17 17 26 17 17 26 17 17 26 17 17 26 17 17 26 17 17 26 17 17 26 17 17 26 17 17 26 17 17 26 17 17 26 75 75 85 17 17 26 17 17 26 17 17 26 17 17 26 17 17 26 17 17 26 17 17 26 17 17 26 17 17 26 17 17 26 17 17 26 75 75 85 17 17 26 17 17 26 17 17 26 17 17 26 17 17 26 17 17 26 17 17 26 17 17 26 17 17 26 17 17 26 17 17 26 75 75 85 17 17 26 17 17 26 17 17 26 17 17 26 17 17 26 17 17 26 17 17 26 17 17 26 17 17 26 17 17 26 17 17 26 5 5 7 5 5 7 5 5 7 5 5 7 5 5 7 5 5 7 5 5 7 5 5 7
5 5 7 5 5 7 5 5 7 5 5 7 5 5 7 5 5 7 5 5 7 5 5 7 17 17 26 17 17 26 17 17 26 17 17 26 17 17 26 17 17 26 17 17 26 17 17 26 17 17 26 17 17 26 17 17 26 17 17 26 75 75 85 17 17 26 17 17 26 17 17 26 17 17 26 17 17 26 17 17 26 17 17 26 17 17 26 17 17 26 17 17 26 17 17 26 75 75 85 17 17 26 17 17 26 181 168 255 181 168 255 181 168 255 181 168 255 181 168 255 181 168 255 181 168 255 181 168 255 181 168 255 181 168 255 181 168 255 181 168 255 17 17 26 17 17 26 17 17 26 17 17 26 17 17 26 17 17 26 17 17 26 17 17 26 17 17 26 5 5 7 5 5 7 5 5 7 5 5 7 5 5 7 5 5 7 5 5 7 5 5 7
5 5 7 5 5 7 5 5 7 5 5 7 5 5 7 5 5 7 5 5 7 5 5 7 17 17 26 17 17 26 17 17 26 17 17 26 17 17 26 17 17 26 17 17 26 17 17 26 17 17 26 17 17 26 17 17 26 17 17 26 75 75 85 17 17 26 17 17 26 17 17 26 17 17 26 17 17 26 17 17 26 17 17 26 17 17 26 17 17 26 17 17 26 17 17 26 75 75 85 17 17 26 17 17 26 181 168 255 181 168 255 181 168 255 181 168 255 181 168 255 181 168 255 181 168 255 181 168 255 181 168 255 181 168 255 181 168 255 181 168 255 17 17 26 17 17 26 17 17 26 17 17 26 17 17 26 17 17 26 17 17 26 17 17 26 17 17 26 5 5 7 5 5 7 5 5 7 5 5 7 5 5 7 5 5 7 5 5 7 5 5 7
5 5 7 5 5 7 5 5 7 5 5 7 5 5 7 5 5 7 5 5 7 5 5 7 17 17 26 17 17 26 17 17 26 17 17 26 17 17 26 75 75 85 75 75 85 75 75 85 75 75 85 75 75 85 75 75 85 75 75 85 75 75 85 75 75 85 75 75 85 75 75 85 75 75 85 75 75 85 75 75 85 75 75 85 75 75 85 75 75 85 75 75 85 75 75 85 75 75 85 75 75 85 75 75 85 181 168 255 181 168 255 181 168 255 181 168 255 181 168 255 181 168 255 181 168 255 181 168 255 181 168 255 181 168 255 181 168 255 181 168 255 75 75 85 75 75 85 75 75 85 75 75 85 75 75 85 17 17 26 17 17 26 17 17 26 17 17 26 5 5 7 5 5 7 5 5 7 5 5 7 5 5 7 5 5 7 5 5 7 5 5 7
5 5 7 5 5 7 5 5 7 5 5 7 5 5 7 5 5 7 5 5 7 5 5 7 17 17 26 17 17 26 17 17 26 17 17 26 17 17 26 75 75 85 75 75 85 75 75 85 75 75 85 75 75 85 75 75 85 75 75 85 75 75 85 75 75 85 75 75 85 75 75 85 75 75 85 75 75 85 75 75 85 75 75 85 75 75 85 75 75 85 75 75 85 75 75 85 75 75 85 75 75 85 75 75 85 181 168 255 181 168 255 181 168 255 181 168 255 181 168 255 181 168 255 181 168 255 181 168 255 181 168 255 181 168 255 181 168 255 181 168 255 75 75 85 75 75 85 75 75 85 75 75 85 75 75 85 17 17 26 17 17 26 17 17 26 17 17 26 5 5 7 5 5 7 5 5 7 5 5 7 5 5 7 5 5 7 5 5 7 5 5 7
5 5 7 5 5 7 5 5 7 5 5 7 5 5 7 5 5 7 5 5 7 5 5 7 17 17 26 17 17 26 17 17 26 17 17 26 17 17 26 75 75 85 75 75 85 75 75 85 75 75 85 75 75 85 75 75 85 75 75 85 75 75 85 75 75 85 75 75 85 75 75 85 75 75 85 75 75 85 75 75 85 75 75 85 75 75 85 75 75 85 75 75 85 75 75 85 75 75 85 75 75 85 75 75 85 181 168 255 181 168 255 181 168 255 181 168 255 181 168 255 181 168 255 181 168 255 181 168 255 181 168 255 181 168 255 181 168 255 181 168 255 75 75 85 75 75 85 75 75 85 75 75 85 75 75 85 17 17 26 17 17 26 17 17 26 17 17 26 5 5 7 5 5 7 5 5 7 5 5 7 5 5 7 5 5 7 5 5 7 5 5 7
5 5 7 5 5 7 5 5 7 5 5 7 5 5 7 5 5 7 5 5 7 5 5 7 17 17 26 17 17 26 17 17 26 17 17 26 17 17 26 17 17 26 17 17 26 17 17 26 17 17 26 17 17 26 17 17 26 17 17 26 75 75 85 17 17 26 17 17 26 17 17 26 17 17 26 17 17 26 17 17 26 17 17 26 17 17 26 17 17 26 17 17 26 17 17 26 75 75 85 17 17 26 17 17 26 17 17 26 17 17 26 17 17 26 17 17 26 17 17 26 17 17 26 17 17 26 17 17 26 17 17 26 75 75 85 17 17 26 17 17 26 17 17 26 17 17 26 17 17 26 17 17 26 17 17 26 17 17 26 17 17 26 17 17 26 17 17 26 5 5 7 5 5 7 5 5 7 5 5 7 5 5 7 5 5 7 5 5 7 5 5 7
5 5 7 5 5 7 5 5 7 5 5 7 5 5 7 5 5 7 5 5 7 5 5 7 17 17 26 17 17 26 17 17 26 17 17 26 17 17 26 17 17 26 17 17 26 17 17 26 17 17 26 17 17 26 17 17 26 17 17 26 75 75 85 17 17 26 17 17 26 17 17 26 17 17 26 17 17 26 17 17 26 17 17 26 17 17 26 17 17 26 17 17 26 17 17 26 75 75 85 17 17 26 17 17 26 17 17 26 17 17 26 17 17 26 17 17 26 17 17 26 17 17 26 17 17 26 17 17 26 17 17 26 75 75 85 17 17 26 17 17 26 17 17 26 17 17 26 17 17 26 17 17 26 17 17 26 17 17 26 17 17 26 17 17 26 17 17 26 5 5 7 5 5 7 5 5 7 5 5 7 5 5 7 5 5 7 5 5 7 5 5 7
5 5 7 5 5 7 5 5 7 5 5 7 5 5 7 5 5 7 5 5 7 5 5 7 17 17 26 17 17 26 17 17 26 17 17 26 17 17 26 17 17 26 17 17 26 17 17 26 17 17 26 17 17 26 17 17 26 17 17 26 75 75 85 17 17 26 17 17 26 17 17 26 17 17 26 17 17 26 17 17 26 17 17 26 17 17 26 17 17 26 17 17 26 17 17 26 75 75 85 17 17 26 17 17 26 17 17 26 17 17 26 17 17 26 17 17 26 17 17 26 17 17 26 17 17 26 17 17 26 17 17 26 75 75 85 17 17 26 17 17 26 17 17 26 17 17 26 17 17 26 17 17 26 17 17 26 17 17 26 17 17 26 17 17 26 17 17 26 5 5 7 5 5 7 5 5 7 5 5 7 5 5 7 5 5 7 5 5 7 5 5 7
5 5 7 5 5 7 5 5 7 5 5 7 5 5 7 5 5 7 5 5 7 5 5 7 17 17 26 17 17 26 17 17 26 17 17 26 17 17 26 75 75 85 75 75 85 75 75 85 75 75 85 75 75 85 75 75 85 75 75 85 75 75 85 75 75 85 75 75 85 75 75 85 75 75 85 75 75 85 75 75 85 75 75 85 75 75 85 75 75 85 75 75 85 75 75 85 75 75 85 75 75 85 75 75 85 75 75 85 75 75 85 75 75 85 75 75 85 75 75 85 75 75 85 75 75 85 75 75 85 75 75 85 75 75 85 75 75 85 75 75 85 75 75 85 75 75 85 75 75 85 75 75 85 75 75 85 17 17 26 17 17 26 17 17 26 17 17 26 5 5 7 5 5 7 5 5 7 5 5 7 5 5 7 5 5 7 5 5 7 5 5 7
5 5 7 5 5 7 5 5 7 5 5 7 5 5 7 5 5 7 5 5 7 5 5 7 17 17 26 17 17 26 17 17 26 17 17 26 17 17 26 75 75 85 75 75 85 75 75 85 75 75 85 75 75 85 75 75 85 75 75 85 75 75 85 75 75 85 75 75 85 75 75 85 75 75 85 75 75 85 75 75 85 75 75 85 75 75 85 75 75 85 75 75 85 75 75 85 75 75 85 75 75 85 75 75 85 75 75 85 75 75 85 75 75 85 75 75 85 75 75 85 75 75 85 75 75 85 75 75 85 75 75 85 75 75 85 75 75 85 75 75 85 75 75 85 75 75 85 75 75 85 75 75 85 75 75 85 17 17 26 17 17 26 17 17 26 17 17 26 5 5 7 5 5 7 5 5 7 5 5 7 5 5 7 5 5 7 5 5 7 5 5 7
5 5 7 5 5 7 5 5 7 5 5 7 5 5 7 5 5 7 5 5 7 5 5 7 17 17 26 17 17 26 17 17 26 17 17 26 17 17 26 75 75 85 75 75 85 75 75 85 75 75 85 75 75 85 75 75 85 75 75 85 75 75 85 75 75 85 75 75 85 75 75 85 75 75 85 75 75 85 75 75 85 75 75 85 75 75 85 75 75 85 75 75 85 75 75 85 75 75 85 75 75 85 75 75 85 75 75 85 75 75 85 75 75 85 75 75 85 75 75 85 75 75 85 75 75 85 75 75 85 75 75 85 75 75 85 75 75 85 75 75 85 75 75 85 75 75 85 75 75 85 75 75 85 75 75 85 17 17 26 17 17 26 17 17 26 17 17 26 5 5 7 5 5 7 5 5 7 5 5 7 5 5 7 5 5 7 5 5 7 5 5 7
5 5 7 5 5 7 5 5 7 5 5 7 5 5 7 5 5 7 5 5 7 5 5 7 17 17 26 17 17 26 17 17 26 17 17 26 17 17 26 17 17 26 17 17 26 17 17 26 17 17 26 17 17 26 17 17 26 17 17 26 75 75 85 17 17 26 17 17 26 17 17 26 17 17 26 17 17 26 17 17 26 17 17 26 17 17 26 17 17 26 17 17 26 17 17 26 75 75 85 17 17 26 17 17 26 17 17 26 17 17 26 17 17 26 17 17 26 17 17 26 17 17 26 17 17 26 17 17 26 17 17 26 75 75 85 17 17 26 17 17 26 17 17 26 17 17 26 17 17 26 17 17 26 17 17 26 17 17 26 17 17 26 17 17 26 17 17 26 5 5 7 5 5 7 5 5 7 5 5 7 5 5 7 5 5 7 5 5 7 5 5 7
5 5 7 5 5 7 5 5 7 5 5 7 5 5 7 5 5 7 5 5 7 5 5 7 17 17 26 17 17 26 17 17 26 17 17 26 17 17 26 17 17 26 17 17 26 17 17 26 17 17 26 17 17 26 17 17 26 17 17 26 75 75 85 17 17 26 17 17 26 17 17 26 17 17 26 17 17 26 17 17 26 17 17 26 17 17 26 17 17 26 17 17 26 17 17 26 75 75 85 17 17 26 17 17 26 17 17 26 17 17 26 17 17 26 17 17 26 17 17 26 17 17 26 17 17 26 17 17 26 17 17 26 75 75 85 17 17 26 17 17 26 17 17 26 17 17 26 17 17 26 17 17 26 17 17 26 17 17 26 17 17 26 17 17 26 17 17 26 5 5 7 5 5 7 5 5 7 5 5 7 5 5 7 5 5 7 5 5 7 5 5 7
5 5 7 5 5 7 5 5 7 5 5 7 5 5 7 5 5 7 5 5 7 5 5 7 17 17 26 17 17 26 17 17 26 17 17 26 17 17 26 17 17 26 17 17 26 17 17 26 17 17 26 17 17 26 17 17 26 17 17 26 17 17 26 17 17 26 17 17 26 17 17 26 17 17 26 17 17 26 17 17 26 17 17 26 17 17 26 17 17 26 17 17 26 17 17 26 17 17 26 17 17 26 17 17 26 17 17 26 17 17 26 17 17 26 17 17 26 17 17 26 17 17 26 17 17 26 17 17 26 17 17 26 17 17 26 17 17 26 17 17 26 17 17 26 17 17 26 17 17 26 17 17 26 17 17 26 17 17 26 17 17 26 17 17 26 17 17 26 5 5 7 5 5 7 5 5 7 5 5 7 5 5 7 5 5 7 5 5 7 5 5 7
5 5 7 5 5 7 5 5 7 5 5 7 5 5 7 5 5 7 5 5 7 5 5 7 17 17 26 17 17 26 17 17 26 17 17 26 17 17 26 17 17 26 17 17 26 17 17 26 17 17 26 17 17 26 17 17 26 17 17 26 17 17 26 17 17 26 17 17 26 17 17 26 17 17 26 17 17 26 17 17 26 17 17 26 17 17 26 17 17 26 17 17 26 17 17 26 17 17 26 17 17 26 17 17 26 17 17 26 17 17 26 17 17 26 17 17 26 17 17 26 17 17 26 17 17 26 17 17 26 17 17 26 17 17 26 17 17 26 17 17 26 17 17 26 17 17 26 17 17 26 17 17 26 17 17 26 17 17 26 17 17 26 17 17 26 17 17 26 5 5 7 5 5 7 5 5 7 5 5 7 5 5 7 5 5 7 5 5 7 5 5 7
5 5 7 5 5 7 5 5 7 5 5 7 5 5 7 5 5 7 5 5 7 5 5 7 5 5 7 5 5 7 5 5 7 5 5 7 5 5 7 5 5 7 5 5 7 5 5 7 5 5 7 5 5 7 5 5 7 5 5 7 5 5 7 5 5 7 5 5 7 5 5 7 5 5 7 5 5 7 5 5 7 5 5 7 5 5 7 5 5 7 5 5 7 5 5 7 5 5 7 5 5 7 5 5 7 5 5 7 5 5 7 5 5 7 5 5 7 5 5 7 5 5 7 5 5 7 5 5 7 5 5 7 5 5 7 5 5 7 5 5 7 5 5 7 5 5 7 5 5 7 5 5 7 5 5 7 5 5 7 5 5 7 5 5 7 5 5 7 5 5 7 5 5 7 5 5 7 5 5 7 5 5 7 5 5 7 5 5 7 5 5 7
5 5 7 5 5 7 5 5 7 5 5 7 5 5 7 5 5 7 5 5 7 5 5 7 5 5 7 5 5 7 5 5 7 5 5 7 5 5 7 5 5 7 5 5 7 5 5 7 5 5 7 5 5 7 5 5 7 5 5 7 5 5 7 5 5 7 5 5 7 5 5 7 5 5 7 5 5 7 5 5 7 5 5 7 5 5 7 5 5 7 5 5 7 5 5 7 5 5 7 5 5 7 5 5 7 5 5 7 5 5 7 5 5 7 5 5 7 5 5 7 5 5 7 5 5 7 5 5 7 5 5 7 5 5 7 5 5 7 5 5 7 5 5 7 5 5 7 5 5 7 5 5 7 5 5 7 5 5 7 5 5 7 5 5 7 5 5 7 5 5 7 5 5 7 5 5 7 5 5 7 5 5 7 5 5 7 5 5 7 5 5 7
5 5 7 5 5 7 5 5 7 5 5 7 5 5 7 5 5 7 5 5 7 5 5 7 5 5 7 5 5 7 5 5 7 5 5 7 5 5 7 5 5 7 5 5 7 5 5 7 5 5 7 5 5 7 5 5 7 5 5 7 5 5 7 5 5 7 5 5 7 5 5 7 5 5 7 5 5 7 5 5 7 5 5 7 5 5 7 5 5 7 5 5 7 5 5 7 5 5 7 5 5 7 5 5 7 5 5 7 5 5 7 5 5 7 5 5 7 5 5 7 5 5 7 5 5 7 5 5 7 5 5 7 5 5 7 5 5 7 5 5 7 5 5 7 5 5 7 5 5 7 5 5 7 5 5 7 5 5 7 5 5 7 5 5 7 5 5 7 5 5 7 5 5 7 5 5 7 5 5 7 5 5 7 5 5 7 5 5 7 5 5 7
5 5 7 5 5 7 5 5 7 5 5 7 5 5 7 5 5 7 5 5 7 5 5 7 5 5 7 5 5 7 5 5 7 5 5 7 5 5 7 5 5 7 5 5 7 5 5 7 5 5 7 5 5 7 5 5 7 5 5 7 5 5 7 5 5 7 5 5 7 5 5 7 5 5 7 5 5 7 5 5 7 5 5 7 5 5 7 5 5 7 5 5 7 5 5 7 5 5 7 5 5 7 5 5 7 5 5 7 5 5 7 5 5 7 5 5 7 5 5 7 5 5 7 5 5 7 5 5 7 5 5 7 5 5 7 5 5 7 5 5 7 5 5 7 5 5 7 5 5 7 5 5 7 5 5 7 5 5 7 5 5 7 5 5 7 5 5 7 5 5 7 5 5 7 5 5 7 5 5 7 5 5 7 5 5 7 5 5 7 5 5 7
5 5 7 5 5 7 5 5 7 5 5 7 5 5 7 5 5 7 5 5 7 5 5 7 5 5 7 5 5 7 5 5 7 5 5 7 5 5 7 5 5 7 5 5 7 5 5 7 5 5 7 5 5 7 5 5 7 5 5 7 5 5 7 5 5 7 5 5 7 5 5 7 5 5 7 5 5 7 5 5 7 5 5 7 5 5 7 5 5 7 5 5 7 5 5 7 5 5 7 5 5 7 5 5 7 5 5 7 5 5 7 5 5 7 5 5 7 5 5 7 5 5 7 5 5 7 5 5 7 5 5 7 5 5 7 5 5 7 5 5 7 5 5 7 5 5 7 5 5 7 5 5 7 5 5 7 5 5 7 5 5 7 5 5 7 5 5 7 5 5 7 5 5 7 5 5 7 5 5 7 5 5 7 5 5 7 5 5 7 5 5 7
5 5 7 5 5 7 5 5 7 5 5 7 5 5 7 5 5 7 5 5 7 5 5 7 5 5 7 5 5 7 5 5 7 5 5 7 5 5 7 5 5 7 5 5 7 5 5 7 5 5 7 5 5 7 5 5 7 5 5 7 5 5 7 5 5 7 5 5 7 5 5 7 5 5 7 5 5 7 5 5 7 5 5 7 5 5 7 5 5 7 5 5 7 5 5 7 5 5 7 5 5 7 5 5 7 5 5 7 5 5 7 5 5 7 5 5 7 5 5 7 5 5 7 5 5 7 5 5 7 5 5 7 5 5 7 5 5 7 5 5 7 5 5 7 5 5 7 5 5 7 5 5 7 5 5 7 5 5 7 5 5 7 5 5 7 5 5 7 5 5 7 5 5 7 5 5 7 5 5 7 5 5 7 5 5 7 5 5 7 5 5 7
